%
(MOTOR001 - STEP 1 - TRIM BOTTOM)
(T4  D=6.35 CR=0. - ZMIN=0.5 - FLAT END MILL)
N10 G90 G54 G64 G50 G17 G40 G80 G94 G91.1 G49
N20 G21
N30 G28 G91 Z0.
N40 G90

(BOTTOM EDGE)
N50 M998
N60 T4 G43 H4 M6
N70 S5000 M3
N80 G54
N90 G0 X70.506 Y34.511
N100 M8
N110 G0 Z12.
N120 G0 Z3.635
N130 G1 Z1.135 F508.
N140 G1 Y34.503 Z1.036
N150 G1 Y34.48 Z0.939
N160 G1 Y34.442 Z0.847
N170 G1 Y34.39 Z0.762
N180 G1 Y34.325 Z0.686
N190 G1 Y34.249 Z0.621
N200 G1 Y34.164 Z0.569
N210 G1 Y34.072 Z0.531
N220 G1 Y33.975 Z0.508
N230 G1 Y33.876 Z0.5
N240 G1 X70.507 Y32.325
N250 G1 X70.525 Y-31.25 F1016.
N260 G1 Y-32.251
N270 G1 X70.524 Y-33.69
N280 G1 Y-33.789 Z0.508
N290 G1 Y-33.886 Z0.531
N300 G1 Y-33.978 Z0.569
N310 G1 Y-34.063 Z0.621
N320 G1 Y-34.139 Z0.686
N330 G1 Y-34.204 Z0.762
N340 G1 Y-34.256 Z0.847
N350 G1 Y-34.294 Z0.939
N360 G1 Y-34.317 Z1.036
N370 G1 Y-34.325 Z1.135
N380 G0 Z3.635
N390 G0 X70.277 Y34.747
N400 G1 Z1.071 F508.
N410 G1 X70.276 Y34.74 Z0.982
N420 G1 X70.272 Y34.719 Z0.895
N430 G1 X70.267 Y34.685 Z0.812
N440 G1 X70.26 Y34.639 Z0.736
N450 G1 X70.251 Y34.581 Z0.667
N460 G1 X70.24 Y34.514 Z0.609
N470 G1 X70.228 Y34.439 Z0.562
N480 G1 X70.215 Y34.357 Z0.528
N490 G1 X70.201 Y34.271 Z0.507
N500 G1 X70.187 Y34.182 Z0.5
N510 G1 X70.083 Y33.522
N520 G3 X70.075 Y33.423 R0.635
N530 G1 Y-31.25 F1016.
N540 G1 Y-33.422
N550 G3 X70.083 Y-33.521 R0.635
N560 G1 X70.126 Y-33.791
N570 G1 X70.141 Y-33.889 Z0.508
N580 G1 X70.156 Y-33.984 Z0.531
N590 G1 X70.171 Y-34.075 Z0.569
N600 G1 X70.184 Y-34.159 Z0.621
N610 G1 X70.196 Y-34.234 Z0.686
N620 G1 X70.206 Y-34.298 Z0.762
N630 G1 X70.214 Y-34.349 Z0.847
N640 G1 X70.22 Y-34.387 Z0.939
N650 G1 X70.224 Y-34.41 Z1.036
N660 G1 X70.225 Y-34.418 Z1.135
N670 G0 Z12.

N690 M9
N700 G28 G91 Z0.
N710 G28 X0. Y0.
N720 M30
