%
(MOTOR001 - STEP 2 - TOP AND HOLES)
(T4  D=6.35 CR=0. - ZMIN=-3.125 - FLAT END MILL)
(T5  D=5. CR=0. TAPER=118DEG - ZMIN=-6.627 - DRILL)
(T6  D=3. CR=0. TAPER=118DEG - ZMIN=-6.026 - DRILL)
(T7  D=5. CR=0. TAPER=118DEG - ZMIN=-3. - CENTER DRILL)
N10 G90 G54 G64 G50 G17 G40 G80 G94 G91.1 G49
N20 G21
N30 G28 G91 Z0.
N40 G90

(TOP PROFILE)
N50 M998
N60 T4 G43 H4 M6
N70 S5000 M3
N80 G54
N90 G0 X66.713 Y35.889
N100 M8
N110 G0 Z35.
N120 G0 Z5.
N130 G1 Z-1.99 F508.
N140 G1 X66.718 Y35.884 Z-2.089
N150 G1 X66.735 Y35.867 Z-2.186
N160 G1 X66.762 Y35.84 Z-2.278
N170 G1 X66.799 Y35.803 Z-2.363
N180 G1 X66.844 Y35.758 Z-2.439
N190 G1 X66.898 Y35.704 Z-2.504
N200 G1 X66.958 Y35.644 Z-2.556
N210 G1 X67.023 Y35.579 Z-2.594
N220 G1 X67.092 Y35.51 Z-2.617
N230 G1 X67.162 Y35.44 Z-2.625
N240 G1 X68.475 Y34.127
N250 G1 X68.778 Y33.824 F1016.
N260 G3 X69.25 Y33.851 R0.317
N270 G3 X69.172 Y34.317 R0.317
N280 G1 X67.638 Y35.285
N290 G3 X67.244 Y34.792 R0.318
N300 G1 X69.442 Y32.594
N310 G3 X69.903 Y32.607 R0.317
N320 G3 X69.865 Y33.066 R0.317
N330 G1 X66.993 Y35.373
N340 G3 X66.569 Y34.901 R0.317
N350 G1 X69.552 Y31.919
N360 G3 X70.01 Y31.929 R0.318
N370 G3 X69.98 Y32.387 R0.318
N380 G1 X66.419 Y35.382
N390 G3 X65.99 Y34.915 R0.318
N400 G1 X69.564 Y31.341
N410 G3 X70.021 Y31.35 R0.318
N420 G3 X69.996 Y31.806 R0.318
N430 G1 X65.857 Y35.379
N440 G3 X65.425 Y34.914 R0.318
N450 G1 X69.565 Y30.775
N460 G3 X70.021 Y30.782 R0.317
N470 G3 X69.999 Y31.238 R0.317
N480 G1 X65.294 Y35.377
N490 G3 X64.86 Y34.914 R0.317
N500 G1 X69.465 Y30.308
N510 G2 X69.564 Y30.207 R5.325
N520 G3 X70.022 Y30.204 R0.318
N530 G3 X70.006 Y30.662 R0.318
N540 G1 X64.706 Y35.388
N550 G3 X64.258 Y35.363 R0.317
N560 G3 X64.283 Y34.915 R0.317
N570 G2 X64.475 Y34.733 R4.925
N580 G1 X69.183 Y30.025
N590 G2 X69.564 Y29.596 R4.925
N600 G3 X70.03 Y29.562 R0.318
N610 G3 X70.026 Y30.029 R0.318
N620 G1 X64.046 Y35.408
N630 G3 X63.587 Y35.371 R0.318
N640 G3 X63.647 Y34.915 R0.318
N650 G2 X64.193 Y34.45 R4.525
N660 G1 X68.9 Y29.743
N670 G2 X69.564 Y28.897 R4.525
N680 G3 X70.038 Y28.818 R0.318
N690 G3 X70.048 Y29.298 R0.318
N700 G1 X63.245 Y35.433
N710 G3 X62.771 Y35.378 R0.317
N720 G3 X62.886 Y34.915 R0.317
N730 G2 X63.91 Y34.167 R4.125
N740 G1 X68.617 Y29.46
N750 G2 X69.565 Y27.985 R4.125
N760 G1 X70.154 Y26.405
N770 G1 X70.189 Y26.312 Z-2.617
N780 G1 X70.223 Y26.221 Z-2.594
N790 G1 X70.255 Y26.135 Z-2.556
N800 G1 X70.285 Y26.055 Z-2.504
N810 G1 X70.311 Y25.984 Z-2.439
N820 G1 X70.334 Y25.923 Z-2.363
N830 G1 X70.352 Y25.875 Z-2.278
N840 G1 X70.366 Y25.839 Z-2.186
N850 G1 X70.374 Y25.817 Z-2.089
N860 G1 X70.376 Y25.81 Z-1.99
N870 G0 Z25.
N880 G0 X70.539 Y-32.063
N890 G0 Z5.
N900 G1 Z-1.99 F508.
N910 G1 X70.533 Y-32.069 Z-2.089
N920 G1 X70.517 Y-32.085 Z-2.186
N930 G1 X70.49 Y-32.112 Z-2.278
N940 G1 X70.453 Y-32.149 Z-2.363
N950 G1 X70.407 Y-32.195 Z-2.439
N960 G1 X70.354 Y-32.248 Z-2.504
N970 G1 X70.294 Y-32.308 Z-2.556
N980 G1 X70.229 Y-32.373 Z-2.594
N990 G1 X70.16 Y-32.442 Z-2.617
N1000 G1 X70.09 Y-32.512 Z-2.625
N1010 G1 X68.778 Y-33.824
N1020 G1 X68.475 Y-34.127 F1016.
N1030 G3 X68.501 Y-34.6 R0.317
N1040 G3 X68.968 Y-34.521 R0.317
N1050 G1 X69.935 Y-32.988
N1060 G3 X69.442 Y-32.594 R0.317
N1070 G1 X67.244 Y-34.792
N1080 G3 X67.257 Y-35.253 R0.317
N1090 G3 X67.717 Y-35.215 R0.317
N1100 G1 X70.024 Y-32.342
N1110 G3 X69.552 Y-31.919 R0.317
N1120 G1 X66.569 Y-34.901
N1130 G3 X66.579 Y-35.36 R0.318
N1140 G3 X67.037 Y-35.33 R0.318
N1150 G1 X70.031 Y-31.77
N1160 G3 X69.564 Y-31.341 R0.318
N1170 G1 X65.99 Y-34.915
N1180 G3 X65.999 Y-35.372 R0.317
N1190 G3 X66.455 Y-35.347 R0.317
N1200 G1 X70.029 Y-31.207
N1210 G3 X69.565 Y-30.775 R0.318
N1220 G1 X65.425 Y-34.914
N1230 G3 X65.432 Y-35.37 R0.318
N1240 G3 X65.888 Y-35.348 R0.318
N1250 G1 X70.034 Y-30.634
N1260 G3 X69.565 Y-30.206 R0.318
N1270 G2 X69.465 Y-30.308 R5.325
N1280 G1 X64.86 Y-34.914
N1290 G3 X64.867 Y-35.37 R0.318
N1300 G3 X65.322 Y-35.349 R0.318
N1310 G1 X70.051 Y-30.003
N1320 G3 X70.017 Y-29.549 R0.318
N1330 G3 X69.565 Y-29.596 R0.318
N1340 G2 X69.183 Y-30.025 R4.925
N1350 G1 X64.475 Y-34.733
N1360 G2 X64.284 Y-34.914 R4.925
N1370 G3 X64.273 Y-35.376 R0.318
N1380 G3 X64.735 Y-35.359 R0.318
N1390 G1 X70.074 Y-29.272
N1400 G3 X70.023 Y-28.807 R0.317
N1410 G3 X69.564 Y-28.898 R0.317
N1420 G2 X68.9 Y-29.743 R4.525
N1430 G1 X64.193 Y-34.45
N1440 G2 X63.648 Y-34.914 R4.525
N1450 G3 X63.592 Y-35.375 R0.317
N1460 G3 X64.056 Y-35.399 R0.317
N1470 G1 X67.097 Y-32.446
N1480 G3 X67.123 Y-32.417 R0.318
N1490 G1 X69.835 Y-29.063
N1500 G3 X69.887 Y-28.97 R0.317
N1510 G1 X70.161 Y-28.203
N1520 G3 X69.565 Y-27.985 R0.318
N1530 G2 X68.617 Y-29.46 R4.125
N1540 G1 X63.91 Y-34.167
N1550 G2 X62.886 Y-34.915 R4.125
N1560 G1 X61.564 Y-35.598
N1570 G1 X61.476 Y-35.644 Z-2.617
N1580 G1 X61.39 Y-35.688 Z-2.594
N1590 G1 X61.308 Y-35.73 Z-2.556
N1600 G1 X61.232 Y-35.769 Z-2.504
N1610 G1 X61.165 Y-35.804 Z-2.439
N1620 G1 X61.108 Y-35.834 Z-2.363
N1630 G1 X61.061 Y-35.858 Z-2.278
N1640 G1 X61.027 Y-35.875 Z-2.186
N1650 G1 X61.007 Y-35.886 Z-2.089
N1660 G1 X61. Y-35.889 Z-1.99
N1670 G0 Z25.
N1680 G0 X60.569 Y34.967
N1690 G0 Z5.
N1700 G1 Z1. F508.
N1710 G1 Z-1.99
N1720 G1 X60.577 Y34.966 Z-2.089
N1730 G1 X60.6 Y34.964 Z-2.186
N1740 G1 X60.638 Y34.962 Z-2.278
N1750 G1 X60.69 Y34.958 Z-2.363
N1760 G1 X60.754 Y34.953 Z-2.439
N1770 G1 X60.83 Y34.947 Z-2.504
N1780 G1 X60.915 Y34.941 Z-2.556
N1790 G1 X61.007 Y34.934 Z-2.594
N1800 G1 X61.103 Y34.927 Z-2.617
N1810 G1 X61.202 Y34.92 Z-2.625
N1820 G1 X61.266 Y34.915
N1830 G2 X63.592 Y33.849 R3.675 F1016.
N1840 G1 X68.299 Y29.142
N1850 G2 X69.375 Y26.543 R3.675
N1860 G1 Y-26.543
N1870 G2 X68.299 Y-29.142 R3.675
N1880 G1 X63.592 Y-33.849
N1890 G2 X61.264 Y-34.915 R3.675
N1900 G1 X60.893 Y-34.942
N1910 G1 X60.794 Y-34.95 Z-2.617
N1920 G1 X60.697 Y-34.957 Z-2.594
N1930 G1 X60.605 Y-34.964 Z-2.556
N1940 G1 X60.521 Y-34.97 Z-2.504
N1950 G1 X60.445 Y-34.976 Z-2.439
N1960 G1 X60.381 Y-34.98 Z-2.363
N1970 G1 X60.329 Y-34.984 Z-2.278
N1980 G1 X60.291 Y-34.987 Z-2.186
N1990 G1 X60.267 Y-34.989 Z-2.089
N2000 G1 X60.26 Z-1.99
N2010 G0 Z35.

(CENTER HOLE)
N2030 G0 X33.815 Y-7.238
N2040 M8
N2050 G0 Z12.
N2060 G0 Z2.
N2070 G1 Z0.635 F508.
N2080 G19 G2 Y-7.872 Z0. R0.635
N2090 G1 Y-8.19
N2100 G17 G3 X34.45 Y-8.825 R0.635
N2110 G3 Y8.825 Z-0.5 R8.825 F1016.
N2120 G3 Y-8.825 Z-1. R8.825
N2130 G3 Y8.825 Z-1.5 R8.825
N2140 G3 Y-8.825 Z-2. R8.825
N2150 G3 Y8.825 Z-2.5 R8.825
N2160 G3 Y-8.825 Z-3. R8.825
N2170 G3 X40.69 Y-6.24 Z-3.125 R8.825
N2180 G3 X28.21 Y6.24 R8.825
N2190 G3 X40.69 Y-6.24 R8.825
N2200 G3 Y-5.342 R0.635
N2210 G1 X40.466 Y-5.118
N2220 G1 X40.395 Y-5.047 Z-3.117
N2230 G1 X40.327 Y-4.979 Z-3.094
N2240 G1 X40.262 Y-4.914 Z-3.056
N2250 G1 X40.202 Y-4.854 Z-3.004
N2260 G1 X40.148 Y-4.8 Z-2.939
N2270 G1 X40.102 Y-4.754 Z-2.863
N2280 G1 X40.066 Y-4.718 Z-2.778
N2290 G1 X40.039 Y-4.691 Z-2.686
N2300 G1 X40.022 Y-4.674 Z-2.589
N2310 G1 X40.017 Y-4.669 Z-2.49
N2320 G0 Z12.
N2340 G28 G91 Z0.
N2350 G90

(CENTER DRILL - NEMA17 HOLES)
N2360 M1
N2370 M998
N2380 T7 G43 H7 M6
N2390 S5000 M3
N2400 G0 X56.37 Y0.
N2410 M8
N2420 G0 Z12.
N2440 G0 Z2.
N2450 G98 G81 X56.37 Y0. Z-1. R2. F250.
N2460 X49.95 Y-15.5
N2470 X34.45 Y-21.92
N2480 X18.95 Y-15.5
N2490 X12.53 Y0.
N2500 X18.95 Y15.5
N2510 X34.45 Y21.92
N2520 X49.95 Y15.5
N2530 G80
N2540 G0 Z12.

(CENTER DRILL - NEMA23 HOLES)
N2560 G0 X58.02 Y23.57
N2570 M8
N2580 G0 Z12.
N2600 G0 Z2.
N2610 G81 X58.02 Y23.57 Z-3. R2. F250.
N2620 X10.88
N2630 Y-23.57
N2640 X58.02
N2650 G80
N2660 G0 Z12.
N2680 G28 G91 Z0.
N2690 G90

(NEMA23 MOUNTS)
N2700 M1
N2710 M998
N2720 T5 G43 H5 M6
N2730 S1000 M3
N2740 G0 X58.02 Y23.57
N2750 M8
N2760 G0 Z15.
N2780 G0 Z5.
N2790 G81 X58.02 Y23.57 Z-6.627 R1. F250.
N2800 X10.88
N2810 Y-23.57
N2820 X58.02
N2830 G80
N2840 G0 Z15.
N2860 G28 G91 Z0.
N2870 G90

(NEMA17 MOUNTS)
N2880 M1
N2890 M998
N2900 T6 G43 H6 M6
N2910 S1000 M3
N2920 G0 X49.95 Y15.5
N2930 M8
N2940 G0 Z15.
N2960 G0 Z5.
N2970 G81 X49.95 Y15.5 Z-6.026 R1. F250.
N2980 X34.45 Y21.92
N2990 X18.95 Y15.5
N3000 X12.53 Y0.
N3010 X18.95 Y-15.5
N3020 X34.45 Y-21.92
N3030 X49.95 Y-15.5
N3040 X56.37 Y0.
N3050 G80
N3060 G0 Z15.

N3080 M9
N3090 G28 G91 Z0.
N3100 G28 X0. Y0.
N3110 M30
