%
(ROD002 - STEP 1 - BOTTOM)
(T4  D=6.35 CR=0. - ZMIN=-17.33 - FLAT END MILL)
N10 G90 G54 G64 G50 G17 G40 G80 G94 G91.1 G49
N20 G21
N30 G28 G91 Z0.
N40 G90

(REAR FACE)
N50 M998
N60 T4 G43 H4 M6
N70 S3000 M3
N80 G54
N90 G0 X11.459 Y-6.094
N100 M8
N110 G1 Z5. F1016.
N120 G1 Z-0.535
N130 G18 G3 X10.824 Z-1.17 R0.635
N140 G1 X8.486 F2032.
N150 G1 X-8.486
N160 G1 X-8.975
N170 G17 G2 Y-0.098 R2.998
N180 G1 X8.975
N190 G3 Y5.898 R2.998
N200 G1 X8.548
N210 G1 X-8.548
N220 G18 G3 X-9.183 Z-0.535 R0.635
N230 G0 Z5.
N240 G17

(MAGNET HOLE)
N250 S5000 M3
N260 G0 X-0.635 Y-0.038
N270 M8
N280 G0 Z0.83
N290 G1 Z-0.535 F508.
N300 G19 G2 Y-0.673 Z-1.17 R0.635
N310 G1 Y-0.99
N320 G17 G3 X0. Y-1.625 R0.635
N330 G3 Y1.625 Z-1.67 R1.625 F1016.
N340 G3 Y-1.625 Z-2.17 R1.625
N350 G3 Y1.625 Z-2.67 R1.625
N360 G3 Y-1.625 Z-3.17 R1.625
N370 G3 Y1.625 Z-3.67 R1.625
N380 G3 Y-1.625 Z-4.17 R1.625
N390 G3 Y1.625 Z-4.67 R1.625
N400 G3 Y-1.625 Z-5.17 R1.625
N410 G3 Y1.625 Z-5.67 R1.625
N420 G3 Y-1.625 Z-6.17 R1.625
N430 G3 Y1.625 Z-6.67 R1.625
N440 G3 Y-1.625 Z-7.17 R1.625
N450 G3 Y1.625 Z-7.67 R1.625
N460 G3 Y-1.625 Z-8.17 R1.625
N470 G3 Y1.625 Z-8.67 R1.625
N480 G3 Y-1.625 Z-9.17 R1.625
N490 G3 Y1.625 Z-9.67 R1.625
N500 G3 Y-1.625 Z-10.17 R1.625
N510 G3 Y1.625 Z-10.67 R1.625
N520 G3 Y-1.625 Z-11.17 R1.625
N530 G3 Y1.625 Z-11.67 R1.625
N540 G3 Y-1.625 Z-12.17 R1.625
N550 G3 Y1.625 Z-12.67 R1.625
N560 G3 Y-1.625 Z-13.17 R1.625
N570 G3 Y1.625 Z-13.67 R1.625
N580 G3 Y-1.625 Z-14.17 R1.625
N590 G3 Y1.625 Z-14.67 R1.625
N600 G3 Y-1.625 Z-15.17 R1.625
N610 G3 Y1.625 Z-15.67 R1.625
N620 G3 Y-1.625 Z-16.17 R1.625
N630 G3 Y1.625 Z-16.67 R1.625
N640 G3 Y-1.625 Z-17.17 R1.625
N650 G3 X1.373 Y-0.869 Z-17.33 R1.625
N660 G3 X-1.373 Y0.869 R1.625
N670 G3 X1.373 Y-0.869 R1.625
N680 G3 X1.176 Y0.008 R0.635
N690 G1 X0.908 Y0.177
N700 G1 X0.824 Y0.23 Z-17.322
N710 G1 X0.742 Y0.282 Z-17.299
N720 G1 X0.664 Y0.331 Z-17.261
N730 G1 X0.592 Y0.377 Z-17.209
N740 G1 X0.528 Y0.417 Z-17.144
N750 G1 X0.474 Y0.452 Z-17.068
N760 G1 X0.43 Y0.48 Z-16.983
N770 G1 X0.397 Y0.5 Z-16.891
N780 G1 X0.378 Y0.512 Z-16.794
N790 G1 X0.371 Y0.517 Z-16.695
N800 G0 Z0.83

(SHANK)
N820 G0 X0.635 Y-13.738
N830 M8
N840 G0 Z0.83
N850 G1 Z-0.535 F508.
N860 G19 G3 Y-13.102 Z-1.17 R0.635
N870 G1 Y-12.785
N880 G17 G3 X0. Y-12.15 R0.635
N890 G2 Y12.15 Z-1.67 R12.15 F1016.
N900 G2 Y-12.15 Z-2.17 R12.15
N910 G2 Y12.15 Z-2.67 R12.15
N920 G2 Y-12.15 Z-3.17 R12.15
N930 G2 Y12.15 Z-3.67 R12.15
N940 G2 Y-12.15 Z-4.17 R12.15
N950 G2 Y12.15 Z-4.67 R12.15
N960 G2 Y-12.15 Z-5.17 R12.15
N970 G2 Y12.15 Z-5.67 R12.15
N980 G2 Y-12.15 Z-6.17 R12.15
N990 G2 Y12.15 Z-6.67 R12.15
N1000 G2 Y-12.15 Z-7.17 R12.15
N1010 G2 Y12.15 Z-7.67 R12.15
N1020 G2 Y-12.15 Z-8.17 R12.15
N1030 G2 Y12.15 Z-8.67 R12.15
N1040 G2 Y-12.15 Z-9.17 R12.15
N1050 G2 Y12.15 Z-9.67 R12.15
N1060 G2 Y-12.15 Z-10.17 R12.15
N1070 G2 Y12.15 Z-10.67 R12.15
N1080 G2 Y-12.15 Z-11.17 R12.15
N1090 G2 Y12.15 R12.15
N1100 G2 Y-12.15 R12.15
N1110 G3 X-0.635 Y-12.785 R0.635
N1120 G1 Y-13.102
N1130 G19 G2 Y-13.738 Z-10.535 R0.635
N1140 G0 Z0.83
N1150 G17

(RING)
N1160 G0 X0.635 Y-14.762
N1170 M8
N1180 G0 Z-0.17
N1190 G0 Z-9.17
N1200 G1 Z-10.535 F508.
N1210 G19 G3 Y-14.127 Z-11.17 R0.635
N1220 G1 Y-13.81
N1230 G17 G3 X0. Y-13.175 R0.635
N1240 G2 Y13.175 Z-11.67 R13.175 F1016.
N1250 G2 Y-13.175 Z-12.17 R13.175
N1260 G2 Y13.175 Z-12.67 R13.175
N1270 G2 Y-13.175 Z-13.17 R13.175
N1280 G2 Y13.175 R13.175
N1290 G2 Y-13.175 R13.175
N1300 G3 X-0.635 Y-13.81 R0.635
N1310 G1 Y-14.127
N1320 G19 G2 Y-14.762 Z-12.535 R0.635
N1330 G0 Z-0.17
N1340 G17

N1350 M9
N1360 G28 G91 Z0.
N1370 G28 X0. Y0.
N1380 M30
