%
(ROD002 - STEP 2 - TOP)
(T1  D=10. CR=5. - ZMIN=6.66 - BALL END MILL)
(T4  D=6.35 CR=0. - ZMIN=0.9 - FLAT END MILL)
N10 G90 G54 G64 G50 G17 G40 G80 G94 G91.1 G49
N20 G21
N30 G28 G91 Z0.
N40 G90

(TIP FACE)
N50 M998
N60 T4 G43 H4 M6
N70 S5000 M3
N80 G54
N90 G0 X8.514 Y-3.096
N100 M8
N110 G1 Z14.83 F508.
N120 G1 Z10.295
N130 G18 G3 X7.879 Z9.66 R0.635
N140 G1 X5. F1016.
N150 G1 X-5.
N160 G17 G2 Y1.923 R2.51
N170 G1 X5.
N180 G18 G2 X5.635 Z10.295 R0.635
N190 G0 Z14.83
N200 G17

(TAPER)
N210 G0 X-0.635 Y9.762
N220 M8
N230 G0 Z11.66
N240 G1 Z10.295 F508.
N250 G19 G2 Y9.127 Z9.66 R0.635
N260 G1 Y8.81
N270 G17 G3 X0. Y8.175 R0.635
N280 G1 X0.284 Y8.173 Z9.655 F1016.
N290 G1 X0.568 Y8.162 Z9.649
N300 G1 X0.852 Y8.14 Z9.644
N310 G1 X1.135 Y8.109 Z9.638
N320 G1 X1.417 Y8.067 Z9.633
N330 G1 X1.697 Y8.016 Z9.627
N340 G1 X1.976 Y7.956 Z9.622
N350 G1 X2.252 Y7.885 Z9.616
N360 G1 X2.526 Y7.805 Z9.61
N370 G1 X2.796 Y7.716 Z9.605
N380 G1 X3.064 Y7.617 Z9.599
N390 G1 X3.328 Y7.509 Z9.594
N400 G1 X3.589 Y7.391 Z9.588
N410 G1 X3.845 Y7.265 Z9.583
N420 G1 X4.097 Y7.13 Z9.577
N430 G1 X4.344 Y6.986 Z9.572
N440 G1 X4.586 Y6.833 Z9.566
N450 G1 X4.823 Y6.672 Z9.561
N460 G1 X5.054 Y6.503 Z9.555
N470 G1 X5.279 Y6.326 Z9.55
N480 G1 X5.498 Y6.141 Z9.544
N490 G1 X5.71 Y5.948 Z9.539
N500 G1 X5.916 Y5.748 Z9.533
N510 G1 X6.114 Y5.541 Z9.527
N520 G1 X6.306 Y5.328 Z9.522
N530 G1 X6.489 Y5.107 Z9.516
N540 G1 X6.666 Y4.88 Z9.511
N550 G1 X6.834 Y4.647 Z9.505
N560 G1 X6.994 Y4.409 Z9.5
N570 G1 X7.146 Y4.165 Z9.494
N580 G1 X7.289 Y3.915 Z9.489
N590 G1 X7.424 Y3.661 Z9.483
N600 G1 X7.549 Y3.402 Z9.478
N610 G1 X7.666 Y3.139 Z9.472
N620 G1 X7.774 Y2.871 Z9.467
N630 G1 X7.872 Y2.6 Z9.461
N640 G1 X7.96 Y2.326 Z9.455
N650 G1 X8.04 Y2.049 Z9.45
N660 G1 X8.109 Y1.769 Z9.444
N670 G1 X8.169 Y1.486 Z9.439
N680 G1 X8.219 Y1.202 Z9.433
N690 G1 X8.259 Y0.916 Z9.428
N700 G1 X8.289 Y0.628 Z9.422
N710 G1 X8.309 Y0.34 Z9.417
N720 G1 X8.319 Y0.051 Z9.411
N730 G1 Y-0.239 Z9.406
N740 G1 X8.308 Y-0.528 Z9.4
N750 G1 X8.288 Y-0.817 Z9.395
N760 G1 X8.258 Y-1.105 Z9.389
N770 G1 X8.218 Y-1.392 Z9.384
N780 G1 X8.168 Y-1.677 Z9.378
N790 G1 X8.107 Y-1.961 Z9.372
N800 G1 X8.037 Y-2.242 Z9.367
N810 G1 X7.958 Y-2.521 Z9.361
N820 G1 X7.868 Y-2.797 Z9.356
N830 G1 X7.769 Y-3.07 Z9.35
N840 G1 X7.661 Y-3.34 Z9.345
N850 G1 X7.543 Y-3.606 Z9.339
N860 G1 X7.416 Y-3.867 Z9.334
N870 G1 X7.28 Y-4.124 Z9.328
N880 G1 X7.135 Y-4.376 Z9.323
N890 G1 X6.981 Y-4.624 Z9.317
N900 G1 X6.818 Y-4.865 Z9.312
N910 G1 X6.648 Y-5.101 Z9.306
N920 G1 X6.469 Y-5.331 Z9.301
N930 G1 X6.282 Y-5.555 Z9.295
N940 G1 X6.087 Y-5.772 Z9.289
N950 G1 X5.885 Y-5.983 Z9.284
N960 G1 X5.676 Y-6.186 Z9.278
N970 G1 X5.459 Y-6.382 Z9.273
N980 G1 X5.236 Y-6.571 Z9.267
N990 G1 X5.007 Y-6.751 Z9.262
N1000 G1 X4.771 Y-6.924 Z9.256
N1010 G1 X4.529 Y-7.088 Z9.251
N1020 G1 X4.281 Y-7.244 Z9.245
N1030 G1 X4.028 Y-7.391 Z9.24
N1040 G1 X3.77 Y-7.53 Z9.234
N1050 G1 X3.508 Y-7.659 Z9.229
N1060 G1 X3.241 Y-7.779 Z9.223
N1070 G1 X2.969 Y-7.89 Z9.218
N1080 G1 X2.694 Y-7.992 Z9.212
N1090 G1 X2.416 Y-8.084 Z9.206
N1100 G1 X2.134 Y-8.166 Z9.201
N1110 G1 X1.85 Y-8.238 Z9.195
N1120 G1 X1.563 Y-8.301 Z9.19
N1130 G1 X1.274 Y-8.353 Z9.184
N1140 G1 X0.983 Y-8.396 Z9.179
N1150 G1 X0.691 Y-8.428 Z9.173
N1160 G1 X0.397 Y-8.45 Z9.168
N1170 G1 X0.103 Y-8.462 Z9.162
N1180 G1 X-0.191 Y-8.464 Z9.157
N1190 G1 X-0.485 Y-8.455 Z9.151
N1200 G1 X-0.779 Y-8.436 Z9.146
N1210 G1 X-1.072 Y-8.407 Z9.14
N1220 G1 X-1.365 Y-8.368 Z9.135
N1230 G1 X-1.655 Y-8.319 Z9.129
N1240 G1 X-1.944 Y-8.259 Z9.123
N1250 G1 X-2.231 Y-8.19 Z9.118
N1260 G1 X-2.515 Y-8.11 Z9.112
N1270 G1 X-2.797 Y-8.021 Z9.107
N1280 G1 X-3.075 Y-7.922 Z9.101
N1290 G1 X-3.35 Y-7.813 Z9.096
N1300 G1 X-3.621 Y-7.695 Z9.09
N1310 G1 X-3.888 Y-7.567 Z9.085
N1320 G1 X-4.15 Y-7.43 Z9.079
N1330 G1 X-4.407 Y-7.284 Z9.074
N1340 G1 X-4.66 Y-7.129 Z9.068
N1350 G1 X-4.906 Y-6.966 Z9.063
N1360 G1 X-5.148 Y-6.793 Z9.057
N1370 G1 X-5.383 Y-6.613 Z9.052
N1380 G1 X-5.611 Y-6.424 Z9.046
N1390 G1 X-5.833 Y-6.227 Z9.04
N1400 G1 X-6.049 Y-6.023 Z9.035
N1410 G1 X-6.257 Y-5.811 Z9.029
N1420 G1 X-6.457 Y-5.592 Z9.024
N1430 G1 X-6.65 Y-5.367 Z9.018
N1440 G1 X-6.835 Y-5.134 Z9.013
N1450 G1 X-7.012 Y-4.895 Z9.007
N1460 G1 X-7.181 Y-4.65 Z9.002
N1470 G1 X-7.341 Y-4.399 Z8.996
N1480 G1 X-7.492 Y-4.143 Z8.991
N1490 G1 X-7.635 Y-3.881 Z8.985
N1500 G1 X-7.768 Y-3.615 Z8.98
N1510 G1 X-7.892 Y-3.344 Z8.974
N1520 G1 X-8.006 Y-3.069 Z8.969
N1530 G1 X-8.111 Y-2.79 Z8.963
N1540 G1 X-8.206 Y-2.507 Z8.957
N1550 G1 X-8.292 Y-2.221 Z8.952
N1560 G1 X-8.367 Y-1.932 Z8.946
N1570 G1 X-8.432 Y-1.641 Z8.941
N1580 G1 X-8.487 Y-1.347 Z8.935
N1590 G1 X-8.532 Y-1.052 Z8.93
N1600 G1 X-8.567 Y-0.755 Z8.924
N1610 G1 X-8.591 Y-0.457 Z8.919
N1620 G1 X-8.605 Y-0.158 Z8.913
N1630 G1 X-8.608 Y0.142 Z8.908
N1640 G1 X-8.601 Y0.441 Z8.902
N1650 G1 X-8.584 Y0.74 Z8.897
N1660 G1 X-8.556 Y1.038 Z8.891
N1670 G1 X-8.518 Y1.336 Z8.886
N1680 G1 X-8.47 Y1.632 Z8.88
N1690 G1 X-8.411 Y1.926 Z8.874
N1700 G1 X-8.342 Y2.218 Z8.869
N1710 G1 X-8.263 Y2.507 Z8.863
N1720 G1 X-8.174 Y2.794 Z8.858
N1730 G1 X-8.075 Y3.078 Z8.852
N1740 G1 X-7.966 Y3.358 Z8.847
N1750 G1 X-7.847 Y3.634 Z8.841
N1760 G1 X-7.719 Y3.906 Z8.836
N1770 G1 X-7.581 Y4.174 Z8.83
N1780 G1 X-7.434 Y4.436 Z8.825
N1790 G1 X-7.278 Y4.694 Z8.819
N1800 G1 X-7.113 Y4.946 Z8.814
N1810 G1 X-6.94 Y5.192 Z8.808
N1820 G1 X-6.758 Y5.432 Z8.802
N1830 G1 X-6.567 Y5.666 Z8.797
N1840 G1 X-6.368 Y5.893 Z8.791
N1850 G1 X-6.162 Y6.113 Z8.786
N1860 G1 X-5.948 Y6.326 Z8.78
N1870 G1 X-5.727 Y6.531 Z8.775
N1880 G1 X-5.498 Y6.729 Z8.769
N1890 G1 X-5.263 Y6.918 Z8.764
N1900 G1 X-5.021 Y7.1 Z8.758
N1910 G1 X-4.773 Y7.273 Z8.753
N1920 G1 X-4.519 Y7.437 Z8.747
N1930 G1 X-4.259 Y7.592 Z8.742
N1940 G1 X-3.994 Y7.739 Z8.736
N1950 G1 X-3.724 Y7.876 Z8.731
N1960 G1 X-3.449 Y8.003 Z8.725
N1970 G1 X-3.17 Y8.121 Z8.719
N1980 G1 X-2.887 Y8.23 Z8.714
N1990 G1 X-2.6 Y8.328 Z8.708
N2000 G1 X-2.31 Y8.417 Z8.703
N2010 G1 X-2.016 Y8.495 Z8.697
N2020 G1 X-1.72 Y8.563 Z8.692
N2030 G1 X-1.422 Y8.621 Z8.686
N2040 G1 X-1.122 Y8.668 Z8.681
N2050 G1 X-0.82 Y8.705 Z8.675
N2060 G1 X-0.517 Y8.732 Z8.67
N2070 G1 X-0.214 Y8.747 Z8.664
N2080 G1 X0.091 Y8.753 Z8.659
N2090 G1 X0.395 Y8.748 Z8.653
N2100 G1 X0.699 Y8.732 Z8.648
N2110 G1 X1.003 Y8.705 Z8.642
N2120 G1 X1.305 Y8.668 Z8.636
N2130 G1 X1.606 Y8.621 Z8.631
N2140 G1 X1.906 Y8.563 Z8.625
N2150 G1 X2.203 Y8.495 Z8.62
N2160 G1 X2.498 Y8.416 Z8.614
N2170 G1 X2.79 Y8.327 Z8.609
N2180 G1 X3.079 Y8.228 Z8.603
N2190 G1 X3.364 Y8.119 Z8.598
N2200 G1 X3.646 Y8. Z8.592
N2210 G1 X3.923 Y7.871 Z8.587
N2220 G1 X4.196 Y7.733 Z8.581
N2230 G1 X4.464 Y7.585 Z8.576
N2240 G1 X4.726 Y7.428 Z8.57
N2250 G1 X4.984 Y7.262 Z8.565
N2260 G1 X5.235 Y7.087 Z8.559
N2270 G1 X5.48 Y6.903 Z8.553
N2280 G1 X5.719 Y6.711 Z8.548
N2290 G1 X5.951 Y6.51 Z8.542
N2300 G1 X6.176 Y6.302 Z8.537
N2310 G1 X6.394 Y6.086 Z8.531
N2320 G1 X6.604 Y5.862 Z8.526
N2330 G1 X6.806 Y5.631 Z8.52
N2340 G1 X7. Y5.393 Z8.515
N2350 G1 X7.186 Y5.148 Z8.509
N2360 G1 X7.363 Y4.897 Z8.504
N2370 G1 X7.532 Y4.639 Z8.498
N2380 G1 X7.691 Y4.376 Z8.493
N2390 G1 X7.842 Y4.108 Z8.487
N2400 G1 X7.982 Y3.834 Z8.482
N2410 G1 X8.114 Y3.556 Z8.476
N2420 G1 X8.236 Y3.273 Z8.47
N2430 G1 X8.347 Y2.985 Z8.465
N2440 G1 X8.449 Y2.694 Z8.459
N2450 G1 X8.541 Y2.4 Z8.454
N2460 G1 X8.622 Y2.102 Z8.448
N2470 G1 X8.693 Y1.802 Z8.443
N2480 G1 X8.754 Y1.499 Z8.437
N2490 G1 X8.804 Y1.194 Z8.432
N2500 G1 X8.843 Y0.888 Z8.426
N2510 G1 X8.872 Y0.58 Z8.421
N2520 G1 X8.89 Y0.272 Z8.415
N2530 G1 X8.897 Y-0.038 Z8.41
N2540 G1 X8.894 Y-0.347 Z8.404
N2550 G1 X8.879 Y-0.656 Z8.399
N2560 G1 X8.854 Y-0.965 Z8.393
N2570 G1 X8.819 Y-1.273 Z8.387
N2580 G1 X8.772 Y-1.579 Z8.382
N2590 G1 X8.715 Y-1.884 Z8.376
N2600 G1 X8.647 Y-2.186 Z8.371
N2610 G1 X8.569 Y-2.486 Z8.365
N2620 G1 X8.481 Y-2.784 Z8.36
N2630 G1 X8.382 Y-3.078 Z8.354
N2640 G1 X8.273 Y-3.369 Z8.349
N2650 G1 X8.153 Y-3.656 Z8.343
N2660 G1 X8.024 Y-3.938 Z8.338
N2670 G1 X7.885 Y-4.216 Z8.332
N2680 G1 X7.737 Y-4.49 Z8.327
N2690 G1 X7.579 Y-4.757 Z8.321
N2700 G1 X7.411 Y-5.02 Z8.316
N2710 G1 X7.235 Y-5.276 Z8.31
N2720 G1 X7.05 Y-5.527 Z8.304
N2730 G1 X6.856 Y-5.77 Z8.299
N2740 G1 X6.653 Y-6.007 Z8.293
N2750 G1 X6.443 Y-6.237 Z8.288
N2760 G1 X6.224 Y-6.46 Z8.282
N2770 G1 X5.998 Y-6.675 Z8.277
N2780 G1 X5.764 Y-6.882 Z8.271
N2790 G1 X5.524 Y-7.08 Z8.266
N2800 G1 X5.276 Y-7.271 Z8.26
N2810 G1 X5.022 Y-7.452 Z8.255
N2820 G1 X4.762 Y-7.625 Z8.249
N2830 G1 X4.495 Y-7.789 Z8.244
N2840 G1 X4.223 Y-7.943 Z8.238
N2850 G1 X3.946 Y-8.088 Z8.232
N2860 G1 X3.664 Y-8.223 Z8.227
N2870 G1 X3.377 Y-8.349 Z8.221
N2880 G1 X3.086 Y-8.464 Z8.216
N2890 G1 X2.79 Y-8.569 Z8.21
N2900 G1 X2.492 Y-8.664 Z8.205
N2910 G1 X2.19 Y-8.749 Z8.199
N2920 G1 X1.885 Y-8.823 Z8.194
N2930 G1 X1.578 Y-8.886 Z8.188
N2940 G1 X1.268 Y-8.939 Z8.183
N2950 G1 X0.957 Y-8.98 Z8.177
N2960 G1 X0.645 Y-9.011 Z8.172
N2970 G1 X0.331 Y-9.032 Z8.166
N2980 G1 X0.017 Y-9.041 Z8.161
N2990 G1 X-0.298 Y-9.039 Z8.155
N3000 G1 X-0.612 Y-9.027 Z8.149
N3010 G1 X-0.926 Y-9.003 Z8.144
N3020 G1 X-1.238 Y-8.969 Z8.138
N3030 G1 X-1.55 Y-8.923 Z8.133
N3040 G1 X-1.86 Y-8.867 Z8.127
N3050 G1 X-2.168 Y-8.8 Z8.122
N3060 G1 X-2.473 Y-8.723 Z8.116
N3070 G1 X-2.776 Y-8.634 Z8.111
N3080 G1 X-3.076 Y-8.536 Z8.105
N3090 G1 X-3.372 Y-8.427 Z8.1
N3100 G1 X-3.664 Y-8.307 Z8.094
N3110 G1 X-3.952 Y-8.178 Z8.089
N3120 G1 X-4.235 Y-8.038 Z8.083
N3130 G1 X-4.514 Y-7.889 Z8.078
N3140 G1 X-4.787 Y-7.73 Z8.072
N3150 G1 X-5.054 Y-7.561 Z8.066
N3160 G1 X-5.316 Y-7.384 Z8.061
N3170 G1 X-5.572 Y-7.197 Z8.055
N3180 G1 X-5.82 Y-7.001 Z8.05
N3190 G1 X-6.062 Y-6.797 Z8.044
N3200 G1 X-6.297 Y-6.585 Z8.039
N3210 G1 X-6.525 Y-6.364 Z8.033
N3220 G1 X-6.744 Y-6.135 Z8.028
N3230 G1 X-6.956 Y-5.899 Z8.022
N3240 G1 X-7.159 Y-5.656 Z8.017
N3250 G1 X-7.354 Y-5.406 Z8.011
N3260 G1 X-7.54 Y-5.148 Z8.006
N3270 G1 X-7.717 Y-4.885 Z8.
N3280 G1 X-7.885 Y-4.615 Z7.995
N3290 G1 X-8.044 Y-4.34 Z7.989
N3300 G1 X-8.193 Y-4.059 Z7.983
N3310 G1 X-8.332 Y-3.773 Z7.978
N3320 G1 X-8.461 Y-3.482 Z7.972
N3330 G1 X-8.58 Y-3.187 Z7.967
N3340 G1 X-8.688 Y-2.888 Z7.961
N3350 G1 X-8.787 Y-2.585 Z7.956
N3360 G1 X-8.874 Y-2.279 Z7.95
N3370 G1 X-8.951 Y-1.97 Z7.945
N3380 G1 X-9.018 Y-1.658 Z7.939
N3390 G1 X-9.073 Y-1.344 Z7.934
N3400 G1 X-9.117 Y-1.028 Z7.928
N3410 G1 X-9.151 Y-0.711 Z7.923
N3420 G1 X-9.173 Y-0.392 Z7.917
N3430 G1 X-9.184 Y-0.073 Z7.912
N3440 G1 X-9.185 Y0.246 Z7.906
N3450 G1 X-9.174 Y0.565 Z7.9
N3460 G1 X-9.152 Y0.884 Z7.895
N3470 G1 X-9.118 Y1.202 Z7.889
N3480 G1 X-9.074 Y1.519 Z7.884
N3490 G1 X-9.019 Y1.834 Z7.878
N3500 G1 X-8.953 Y2.148 Z7.873
N3510 G1 X-8.876 Y2.458 Z7.867
N3520 G1 X-8.788 Y2.766 Z7.862
N3530 G1 X-8.69 Y3.071 Z7.856
N3540 G1 X-8.581 Y3.373 Z7.851
N3550 G1 X-8.461 Y3.67 Z7.845
N3560 G1 X-8.331 Y3.964 Z7.84
N3570 G1 X-8.191 Y4.252 Z7.834
N3580 G1 X-8.041 Y4.536 Z7.829
N3590 G1 X-7.882 Y4.814 Z7.823
N3600 G1 X-7.712 Y5.087 Z7.817
N3610 G1 X-7.533 Y5.354 Z7.812
N3620 G1 X-7.345 Y5.615 Z7.806
N3630 G1 X-7.148 Y5.869 Z7.801
N3640 G1 X-6.942 Y6.116 Z7.795
N3650 G1 X-6.728 Y6.356 Z7.79
N3660 G1 X-6.505 Y6.588 Z7.784
N3670 G1 X-6.274 Y6.812 Z7.779
N3680 G1 X-6.035 Y7.029 Z7.773
N3690 G1 X-5.789 Y7.237 Z7.768
N3700 G1 X-5.536 Y7.436 Z7.762
N3710 G1 X-5.276 Y7.627 Z7.757
N3720 G1 X-5.01 Y7.808 Z7.751
N3730 G1 X-4.737 Y7.981 Z7.746
N3740 G1 X-4.458 Y8.143 Z7.74
N3750 G1 X-4.174 Y8.296 Z7.734
N3760 G1 X-3.884 Y8.439 Z7.729
N3770 G1 X-3.59 Y8.572 Z7.723
N3780 G1 X-3.29 Y8.695 Z7.718
N3790 G1 X-2.987 Y8.807 Z7.712
N3800 G1 X-2.68 Y8.908 Z7.707
N3810 G1 X-2.37 Y8.999 Z7.701
N3820 G1 X-2.056 Y9.079 Z7.696
N3830 G1 X-1.74 Y9.148 Z7.69
N3840 G1 X-1.421 Y9.207 Z7.685
N3850 G1 X-1.101 Y9.254 Z7.679
N3860 G1 X-0.779 Y9.289 Z7.674
N3870 G1 X-0.455 Y9.314 Z7.668
N3880 G1 X-0.131 Y9.327 Z7.662
N3890 G1 X0.193 Y9.33 Z7.657
N3900 G1 X0.517 Y9.32 Z7.651
N3910 G1 X0.841 Y9.3 Z7.646
N3920 G1 X1.165 Y9.268 Z7.64
N3930 G1 X1.487 Y9.225 Z7.635
N3940 G1 X1.807 Y9.171 Z7.629
N3950 G1 X2.126 Y9.106 Z7.624
N3960 G1 X2.442 Y9.03 Z7.618
N3970 G1 X2.755 Y8.942 Z7.613
N3980 G1 X3.065 Y8.844 Z7.607
N3990 G1 X3.372 Y8.735 Z7.602
N4000 G1 X3.675 Y8.616 Z7.596
N4010 G1 X3.974 Y8.486 Z7.591
N4020 G1 X4.268 Y8.345 Z7.585
N4030 G1 X4.557 Y8.195 Z7.579
N4040 G1 X4.84 Y8.034 Z7.574
N4050 G1 X5.119 Y7.864 Z7.568
N4060 G1 X5.391 Y7.684 Z7.563
N4070 G1 X5.656 Y7.494 Z7.557
N4080 G1 X5.916 Y7.295 Z7.552
N4090 G1 X6.168 Y7.088 Z7.546
N4100 G1 X6.413 Y6.871 Z7.541
N4110 G1 X6.65 Y6.646 Z7.535
N4120 G1 X6.879 Y6.413 Z7.53
N4130 G1 X7.1 Y6.173 Z7.524
N4140 G1 X7.313 Y5.924 Z7.519
N4150 G1 X7.517 Y5.668 Z7.513
N4160 G1 X7.712 Y5.405 Z7.508
N4170 G1 X7.898 Y5.136 Z7.502
N4180 G1 X8.075 Y4.86 Z7.496
N4190 G1 X8.242 Y4.577 Z7.491
N4200 G1 X8.399 Y4.29 Z7.485
N4210 G1 X8.546 Y3.996 Z7.48
N4220 G1 X8.682 Y3.698 Z7.474
N4230 G1 X8.809 Y3.395 Z7.469
N4240 G1 X8.924 Y3.088 Z7.463
N4250 G1 X9.029 Y2.777 Z7.458
N4260 G1 X9.123 Y2.462 Z7.452
N4270 G1 X9.207 Y2.144 Z7.447
N4280 G1 X9.279 Y1.823 Z7.441
N4290 G1 X9.34 Y1.5 Z7.436
N4300 G1 X9.389 Y1.175 Z7.43
N4310 G1 X9.428 Y0.848 Z7.425
N4320 G1 X9.455 Y0.52 Z7.419
N4330 G1 X9.47 Y0.191 Z7.413
N4340 G1 X9.474 Y-0.138 Z7.408
N4350 G1 X9.467 Y-0.468 Z7.402
N4360 G1 X9.448 Y-0.797 Z7.397
N4370 G1 X9.418 Y-1.125 Z7.391
N4380 G1 X9.376 Y-1.452 Z7.386
N4390 G1 X9.323 Y-1.778 Z7.38
N4400 G1 X9.259 Y-2.102 Z7.375
N4410 G1 X9.183 Y-2.423 Z7.369
N4420 G1 X9.097 Y-2.742 Z7.364
N4430 G1 X8.999 Y-3.057 Z7.358
N4440 G1 X8.89 Y-3.37 Z7.353
N4450 G1 X8.771 Y-3.678 Z7.347
N4460 G1 X8.64 Y-3.982 Z7.342
N4470 G1 X8.5 Y-4.281 Z7.336
N4480 G1 X8.348 Y-4.576 Z7.33
N4490 G1 X8.187 Y-4.865 Z7.325
N4500 G1 X8.016 Y-5.148 Z7.319
N4510 G1 X7.834 Y-5.425 Z7.314
N4520 G1 X7.644 Y-5.696 Z7.308
N4530 G1 X7.444 Y-5.961 Z7.303
N4540 G1 X7.234 Y-6.218 Z7.297
N4550 G1 X7.016 Y-6.468 Z7.292
N4560 G1 X6.789 Y-6.71 Z7.286
N4570 G1 X6.554 Y-6.944 Z7.281
N4580 G1 X6.311 Y-7.17 Z7.275
N4590 G1 X6.06 Y-7.388 Z7.27
N4600 G1 X5.801 Y-7.597 Z7.264
N4610 G1 X5.535 Y-7.796 Z7.259
N4620 G1 X5.263 Y-7.987 Z7.253
N4630 G1 X4.984 Y-8.168 Z7.247
N4640 G1 X4.698 Y-8.339 Z7.242
N4650 G1 X4.407 Y-8.5 Z7.236
N4660 G1 X4.11 Y-8.651 Z7.231
N4670 G1 X3.808 Y-8.791 Z7.225
N4680 G1 X3.501 Y-8.921 Z7.22
N4690 G1 X3.19 Y-9.041 Z7.214
N4700 G1 X2.875 Y-9.149 Z7.209
N4710 G1 X2.556 Y-9.247 Z7.203
N4720 G1 X2.234 Y-9.333 Z7.198
N4730 G1 X1.909 Y-9.408 Z7.192
N4740 G1 X1.581 Y-9.472 Z7.187
N4750 G1 X1.251 Y-9.525 Z7.181
N4760 G1 X0.92 Y-9.565 Z7.176
N4770 G1 X0.587 Y-9.595 Z7.17
N4780 G1 X0.253 Y-9.613 Z7.164
N4790 G1 X-0.082 Y-9.619 Z7.159
N4800 G1 X-0.416 Y-9.613 Z7.153
N4810 G1 X-0.75 Y-9.596 Z7.148
N4820 G1 X-1.084 Y-9.568 Z7.142
N4830 G1 X-1.416 Y-9.527 Z7.137
N4840 G1 X-1.747 Y-9.475 Z7.131
N4850 G1 X-2.076 Y-9.412 Z7.126
N4860 G1 X-2.403 Y-9.337 Z7.12
N4870 G1 X-2.727 Y-9.251 Z7.115
N4880 G1 X-3.048 Y-9.154 Z7.109
N4890 G1 X-3.365 Y-9.045 Z7.104
N4900 G1 X-3.679 Y-8.926 Z7.098
N4910 G1 X-3.988 Y-8.795 Z7.092
N4920 G1 X-4.293 Y-8.654 Z7.087
N4930 G1 X-4.593 Y-8.503 Z7.081
N4940 G1 X-4.887 Y-8.341 Z7.076
N4950 G1 X-5.176 Y-8.168 Z7.07
N4960 G1 X-5.459 Y-7.986 Z7.065
N4970 G1 X-5.735 Y-7.794 Z7.059
N4980 G1 X-6.004 Y-7.593 Z7.054
N4990 G1 X-6.267 Y-7.382 Z7.048
N5000 G1 X-6.522 Y-7.162 Z7.043
N5010 G1 X-6.769 Y-6.933 Z7.037
N5020 G1 X-7.008 Y-6.696 Z7.032
N5030 G1 X-7.239 Y-6.45 Z7.026
N5040 G1 X-7.461 Y-6.197 Z7.021
N5050 G1 X-7.675 Y-5.935 Z7.015
N5060 G1 X-7.879 Y-5.667 Z7.009
N5070 G1 X-8.074 Y-5.391 Z7.004
N5080 G1 X-8.259 Y-5.109 Z6.998
N5090 G1 X-8.435 Y-4.82 Z6.993
N5100 G1 X-8.6 Y-4.526 Z6.987
N5110 G1 X-8.755 Y-4.225 Z6.982
N5120 G1 X-8.9 Y-3.92 Z6.976
N5130 G1 X-9.033 Y-3.609 Z6.971
N5140 G1 X-9.156 Y-3.294 Z6.965
N5150 G1 X-9.268 Y-2.975 Z6.96
N5160 G1 X-9.369 Y-2.652 Z6.954
N5170 G1 X-9.459 Y-2.325 Z6.949
N5180 G1 X-9.537 Y-1.996 Z6.943
N5190 G1 X-9.604 Y-1.663 Z6.938
N5200 G1 X-9.659 Y-1.329 Z6.932
N5210 G1 X-9.703 Y-0.993 Z6.926
N5220 G1 X-9.735 Y-0.655 Z6.921
N5230 G1 X-9.755 Y-0.316 Z6.915
N5240 G1 X-9.763 Y0.023 Z6.91
N5250 G1 X-9.759 Y0.363 Z6.904
N5260 G1 X-9.744 Y0.702 Z6.899
N5270 G1 X-9.717 Y1.041 Z6.893
N5280 G1 X-9.678 Y1.378 Z6.888
N5290 G1 X-9.627 Y1.714 Z6.882
N5300 G1 X-9.565 Y2.049 Z6.877
N5310 G1 X-9.491 Y2.381 Z6.871
N5320 G1 X-9.406 Y2.71 Z6.866
N5330 G1 X-9.309 Y3.036 Z6.86
N5340 G1 X-9.201 Y3.359 Z6.855
N5350 G1 X-9.081 Y3.678 Z6.849
N5360 G1 X-8.951 Y3.993 Z6.843
N5370 G1 X-8.81 Y4.303 Z6.838
N5380 G1 X-8.658 Y4.608 Z6.832
N5390 G1 X-8.495 Y4.908 Z6.827
N5400 G1 X-8.322 Y5.202 Z6.821
N5410 G1 X-8.139 Y5.49 Z6.816
N5420 G1 X-7.945 Y5.772 Z6.81
N5430 G1 X-7.742 Y6.046 Z6.805
N5440 G1 X-7.53 Y6.314 Z6.799
N5450 G1 X-7.308 Y6.574 Z6.794
N5460 G1 X-7.078 Y6.826 Z6.788
N5470 G1 X-6.838 Y7.071 Z6.783
N5480 G1 X-6.59 Y7.306 Z6.777
N5490 G1 X-6.335 Y7.534 Z6.772
N5500 G1 X-6.071 Y7.752 Z6.766
N5510 G1 X-5.8 Y7.961 Z6.76
N5520 G1 X-5.521 Y8.16 Z6.755
N5530 G1 X-5.236 Y8.35 Z6.749
N5540 G1 X-4.944 Y8.53 Z6.744
N5550 G1 X-4.646 Y8.699 Z6.738
N5560 G1 X-4.342 Y8.858 Z6.733
N5570 G1 X-4.033 Y9.007 Z6.727
N5580 G1 X-3.719 Y9.144 Z6.722
N5590 G1 X-3.399 Y9.271 Z6.716
N5600 G1 X-3.076 Y9.387 Z6.711
N5610 G1 X-2.749 Y9.491 Z6.705
N5620 G1 X-2.418 Y9.584 Z6.7
N5630 G1 X-2.084 Y9.665 Z6.694
N5640 G1 X-1.747 Y9.735 Z6.689
N5650 G1 X-1.408 Y9.793 Z6.683
N5660 G1 X-1.067 Y9.839 Z6.677
N5670 G1 X-0.725 Y9.874 Z6.672
N5680 G1 X-0.381 Y9.896 Z6.666
N5690 G1 X-0.037 Y9.907 Z6.661
N5700 G1 X0.307 Y9.905 Z6.655
N5710 G1 X0.652 Y9.892 Z6.65
N5720 G1 X0.996 Y9.866 Z6.644
N5730 G1 X1.338 Y9.829 Z6.639
N5740 G1 X1.68 Y9.779 Z6.633
N5750 G1 X2.019 Y9.718 Z6.628
N5760 G1 X2.357 Y9.645 Z6.622
N5770 G1 X2.692 Y9.561 Z6.617
N5780 G1 X3.023 Y9.464 Z6.611
N5790 G1 X3.352 Y9.356 Z6.606
N5800 G1 X3.676 Y9.237 Z6.6
N5810 G1 X3.996 Y9.107 Z6.594
N5820 G1 X4.312 Y8.965 Z6.589
N5830 G1 X4.622 Y8.813 Z6.583
N5840 G1 X4.927 Y8.65 Z6.578
N5850 G1 X5.227 Y8.476 Z6.572
N5860 G1 X5.52 Y8.292 Z6.567
N5870 G1 X5.807 Y8.097 Z6.561
N5880 G1 X6.087 Y7.893 Z6.556
N5890 G1 X6.36 Y7.679 Z6.55
N5900 G1 X6.625 Y7.456 Z6.545
N5910 G1 X6.882 Y7.223 Z6.539
N5920 G1 X7.131 Y6.982 Z6.534
N5930 G1 X7.372 Y6.732 Z6.528
N5940 G1 X7.604 Y6.474 Z6.523
N5950 G1 X7.827 Y6.207 Z6.517
N5960 G1 X8.041 Y5.933 Z6.511
N5970 G1 X8.245 Y5.652 Z6.506
N5980 G1 X8.439 Y5.364 Z6.5
N5990 G1 X8.623 Y5.069 Z6.495
N6000 G1 X8.797 Y4.767 Z6.489
N6010 G1 X8.96 Y4.46 Z6.484
N6020 G1 X9.113 Y4.147 Z6.478
N6030 G1 X9.254 Y3.829 Z6.473
N6040 G1 X9.385 Y3.506 Z6.467
N6050 G1 X9.504 Y3.179 Z6.462
N6060 G1 X9.612 Y2.848 Z6.456
N6070 G1 X9.708 Y2.512 Z6.451
N6080 G1 X9.793 Y2.174 Z6.445
N6090 G1 X9.866 Y1.833 Z6.439
N6100 G1 X9.927 Y1.489 Z6.434
N6110 G1 X9.976 Y1.144 Z6.428
N6120 G1 X10.012 Y0.797 Z6.423
N6130 G1 X10.037 Y0.448 Z6.417
N6140 G1 X10.05 Y0.099 Z6.412
N6150 G1 X10.051 Y-0.251 Z6.406
N6160 G1 X10.039 Y-0.6 Z6.401
N6170 G1 X10.015 Y-0.949 Z6.395
N6180 G1 X9.979 Y-1.297 Z6.39
N6190 G1 X9.931 Y-1.644 Z6.384
N6200 G1 X9.871 Y-1.988 Z6.379
N6210 G1 X9.799 Y-2.331 Z6.373
N6220 G1 X9.715 Y-2.671 Z6.368
N6230 G1 X9.62 Y-3.008 Z6.362
N6240 G1 X9.512 Y-3.342 Z6.356
N6250 G1 X9.393 Y-3.672 Z6.351
N6260 G1 X9.263 Y-3.997 Z6.345
N6270 G1 X9.121 Y-4.318 Z6.34
N6280 G1 X8.969 Y-4.634 Z6.334
N6290 G1 X8.805 Y-4.945 Z6.329
N6300 G1 X8.63 Y-5.25 Z6.323
N6310 G1 X8.445 Y-5.548 Z6.318
N6320 G1 X8.25 Y-5.84 Z6.312
N6330 G1 X8.044 Y-6.126 Z6.307
N6340 G1 X7.829 Y-6.404 Z6.301
N6350 G1 X7.604 Y-6.674 Z6.296
N6360 G1 X7.37 Y-6.936 Z6.29
N6370 G1 X7.127 Y-7.191 Z6.285
N6380 G1 X6.874 Y-7.437 Z6.279
N6390 G1 X6.614 Y-7.673 Z6.273
N6400 G1 X6.345 Y-7.901 Z6.268
N6410 G1 X6.068 Y-8.12 Z6.262
N6420 G1 X5.784 Y-8.328 Z6.257
N6430 G1 X5.493 Y-8.527 Z6.251
N6440 G1 X5.195 Y-8.716 Z6.246
N6450 G1 X4.89 Y-8.894 Z6.24
N6460 G1 X4.58 Y-9.061 Z6.235
N6470 G1 X4.263 Y-9.218 Z6.229
N6480 G1 X3.941 Y-9.363 Z6.224
N6490 G1 X3.615 Y-9.498 Z6.218
N6500 G1 X3.283 Y-9.621 Z6.213
N6510 G1 X2.948 Y-9.732 Z6.207
N6520 G1 X2.609 Y-9.832 Z6.202
N6530 G1 X2.266 Y-9.92 Z6.196
N6540 G1 X1.92 Y-9.995 Z6.19
N6550 G1 X1.572 Y-10.059 Z6.185
N6560 G1 X1.222 Y-10.111 Z6.179
N6570 G1 X0.87 Y-10.151 Z6.174
N6580 G1 X0.517 Y-10.178 Z6.168
N6590 G1 X0.163 Y-10.193 Z6.163
N6600 G1 X-0.192 Y-10.196 Z6.157
N6610 G1 X-0.546 Y-10.186 Z6.152
N6620 G1 X-0.9 Y-10.164 Z6.146
N6630 G1 X-1.254 Y-10.13 Z6.141
N6640 G1 X-1.606 Y-10.083 Z6.135
N6650 G1 X-1.956 Y-10.024 Z6.13
N6660 G1 X-2.304 Y-9.954 Z6.124
N6670 G1 X-2.649 Y-9.87 Z6.119
N6680 G1 X-2.992 Y-9.775 Z6.113
N6690 G1 X-3.331 Y-9.669 Z6.107
N6700 G1 X-3.666 Y-9.55 Z6.102
N6710 G1 X-3.997 Y-9.42 Z6.096
N6720 G1 X-4.323 Y-9.278 Z6.091
N6730 G1 X-4.645 Y-9.125 Z6.085
N6740 G1 X-4.961 Y-8.961 Z6.08
N6750 G1 X-5.271 Y-8.786 Z6.074
N6760 G1 X-5.575 Y-8.6 Z6.069
N6770 G1 X-5.872 Y-8.403 Z6.063
N6780 G1 X-6.163 Y-8.197 Z6.058
N6790 G1 X-6.446 Y-7.98 Z6.052
N6800 G1 X-6.722 Y-7.753 Z6.047
N6810 G1 X-6.989 Y-7.517 Z6.041
N6820 G1 X-7.249 Y-7.272 Z6.036
N6830 G1 X-7.499 Y-7.018 Z6.03
N6840 G1 X-7.741 Y-6.755 Z6.024
N6850 G1 X-7.974 Y-6.484 Z6.019
N6860 G1 X-8.197 Y-6.205 Z6.013
N6870 G1 X-8.41 Y-5.918 Z6.008
N6880 G1 X-8.614 Y-5.624 Z6.002
N6890 G1 X-8.807 Y-5.322 Z5.997
N6900 G1 X-8.989 Y-5.015 Z5.991
N6910 G1 X-9.161 Y-4.701 Z5.986
N6920 G1 X-9.322 Y-4.381 Z5.98
N6930 G1 X-9.471 Y-4.055 Z5.975
N6940 G1 X-9.61 Y-3.725 Z5.969
N6950 G1 X-9.736 Y-3.389 Z5.964
N6960 G1 X-9.851 Y-3.05 Z5.958
N6970 G1 X-9.954 Y-2.706 Z5.953
N6980 G1 X-10.046 Y-2.359 Z5.947
N6990 G1 X-10.125 Y-2.009 Z5.941
N7000 G1 X-10.191 Y-1.657 Z5.936
N7010 G1 X-10.246 Y-1.302 Z5.93
N7020 G1 X-10.288 Y-0.945 Z5.925
N7030 G1 X-10.318 Y-0.587 Z5.919
N7040 G1 X-10.336 Y-0.228 Z5.914
N7050 G1 X-10.34 Y0.131 Z5.908
N7060 G1 X-10.333 Y0.491 Z5.903
N7070 G1 X-10.313 Y0.85 Z5.897
N7080 G1 X-10.28 Y1.209 Z5.892
N7090 G1 X-10.235 Y1.566 Z5.886
N7100 G1 X-10.177 Y1.921 Z5.881
N7110 G1 X-10.108 Y2.274 Z5.875
N7120 G1 X-10.026 Y2.625 Z5.869
N7130 G1 X-9.931 Y2.973 Z5.864
N7140 G1 X-9.825 Y3.318 Z5.858
N7150 G1 X-9.707 Y3.658 Z5.853
N7160 G1 X-9.577 Y3.995 Z5.847
N7170 G1 X-9.435 Y4.327 Z5.842
N7180 G1 X-9.282 Y4.653 Z5.836
N7190 G1 X-9.117 Y4.975 Z5.831
N7200 G1 X-8.941 Y5.29 Z5.825
N7210 G1 X-8.755 Y5.6 Z5.82
N7220 G1 X-8.557 Y5.902 Z5.814
N7230 G1 X-8.35 Y6.198 Z5.809
N7240 G1 X-8.132 Y6.487 Z5.803
N7250 G1 X-7.904 Y6.768 Z5.798
N7260 G1 X-7.666 Y7.04 Z5.792
N7270 G1 X-7.419 Y7.305 Z5.786
N7280 G1 X-7.163 Y7.561 Z5.781
N7290 G1 X-6.897 Y7.808 Z5.775
N7300 G1 X-6.624 Y8.045 Z5.77
N7310 G1 X-6.342 Y8.273 Z5.764
N7320 G1 X-6.053 Y8.491 Z5.759
N7330 G1 X-5.755 Y8.699 Z5.753
N7340 G1 X-5.451 Y8.897 Z5.748
N7350 G1 X-5.14 Y9.084 Z5.742
N7360 G1 X-4.823 Y9.26 Z5.737
N7370 G1 X-4.499 Y9.425 Z5.731
N7380 G1 X-4.17 Y9.578 Z5.726
N7390 G1 X-3.836 Y9.72 Z5.72
N7400 G1 X-3.497 Y9.851 Z5.715
N7410 G1 X-3.153 Y9.969 Z5.709
N7420 G1 X-2.806 Y10.076 Z5.703
N7430 G1 X-2.454 Y10.171 Z5.698
N7440 G1 X-2.1 Y10.253 Z5.692
N7450 G1 X-1.743 Y10.323 Z5.687
N7460 G1 X-1.383 Y10.38 Z5.681
N7470 G1 X-1.022 Y10.425 Z5.676
N7480 G1 X-0.659 Y10.458 Z5.67
N7490 G1 X-0.295 Y10.478 Z5.665
N7500 G1 X0.069 Y10.485 Z5.659
N7510 G1 X0.434 Y10.479 Z5.654
N7520 G1 X0.798 Y10.461 Z5.648
N7530 G1 X1.162 Y10.43 Z5.643
N7540 G1 X1.524 Y10.387 Z5.637
N7550 G1 X1.885 Y10.33 Z5.632
N7560 G1 X2.243 Y10.262 Z5.626
N7570 G1 X2.6 Y10.181 Z5.62
N7580 G1 X2.953 Y10.087 Z5.615
N7590 G1 X3.303 Y9.982 Z5.609
N7600 G1 X3.649 Y9.864 Z5.604
N7610 G1 X3.991 Y9.734 Z5.598
N7620 G1 X4.328 Y9.592 Z5.593
N7630 G1 X4.66 Y9.439 Z5.587
N7640 G1 X4.987 Y9.274 Z5.582
N7650 G1 X5.308 Y9.098 Z5.576
N7660 G1 X5.623 Y8.91 Z5.571
N7670 G1 X5.931 Y8.712 Z5.565
N7680 G1 X6.232 Y8.503 Z5.56
N7690 G1 X6.526 Y8.284 Z5.554
N7700 G1 X6.812 Y8.055 Z5.549
N7710 G1 X7.09 Y7.815 Z5.543
N7720 G1 X7.36 Y7.566 Z5.537
N7730 G1 X7.621 Y7.308 Z5.532
N7740 G1 X7.872 Y7.041 Z5.526
N7750 G1 X8.115 Y6.765 Z5.521
N7760 G1 X8.348 Y6.481 Z5.515
N7770 G1 X8.571 Y6.188 Z5.51
N7780 G1 X8.783 Y5.889 Z5.504
N7790 G1 X8.985 Y5.581 Z5.499
N7800 G1 X9.177 Y5.267 Z5.493
N7810 G1 X9.357 Y4.947 Z5.488
N7820 G1 X9.526 Y4.62 Z5.482
N7830 G1 X9.684 Y4.287 Z5.477
N7840 G1 X9.83 Y3.949 Z5.471
N7850 G1 X9.964 Y3.606 Z5.466
N7860 G1 X10.087 Y3.258 Z5.46
N7870 G1 X10.197 Y2.907 Z5.454
N7880 G1 X10.295 Y2.551 Z5.449
N7890 G1 X10.381 Y2.192 Z5.443
N7900 G1 X10.454 Y1.831 Z5.438
N7910 G1 X10.514 Y1.467 Z5.432
N7920 G1 X10.562 Y1.1 Z5.427
N7930 G1 X10.597 Y0.733 Z5.421
N7940 G1 X10.619 Y0.364 Z5.416
N7950 G1 X10.629 Y-0.005 Z5.41
N7960 G1 X10.625 Y-0.375 Z5.405
N7970 G1 X10.609 Y-0.744 Z5.399
N7980 G1 X10.58 Y-1.113 Z5.394
N7990 G1 X10.538 Y-1.481 Z5.388
N8000 G1 X10.483 Y-1.847 Z5.383
N8010 G1 X10.416 Y-2.211 Z5.377
N8020 G1 X10.336 Y-2.572 Z5.371
N8030 G1 X10.243 Y-2.931 Z5.366
N8040 G1 X10.138 Y-3.286 Z5.36
N8050 G1 X10.021 Y-3.638 Z5.355
N8060 G1 X9.891 Y-3.985 Z5.349
N8070 G1 X9.75 Y-4.328 Z5.344
N8080 G1 X9.596 Y-4.665 Z5.338
N8090 G1 X9.431 Y-4.998 Z5.333
N8100 G1 X9.255 Y-5.324 Z5.327
N8110 G1 X9.067 Y-5.644 Z5.322
N8120 G1 X8.867 Y-5.958 Z5.316
N8130 G1 X8.658 Y-6.264 Z5.311
N8140 G1 X8.437 Y-6.564 Z5.305
N8150 G1 X8.206 Y-6.855 Z5.299
N8160 G1 X7.965 Y-7.138 Z5.294
N8170 G1 X7.715 Y-7.413 Z5.288
N8180 G1 X7.455 Y-7.679 Z5.283
N8190 G1 X7.185 Y-7.936 Z5.277
N8200 G1 X6.907 Y-8.183 Z5.272
N8210 G1 X6.62 Y-8.421 Z5.266
N8220 G1 X6.326 Y-8.649 Z5.261
N8230 G1 X6.023 Y-8.866 Z5.255
N8240 G1 X5.713 Y-9.073 Z5.25
N8250 G1 X5.395 Y-9.269 Z5.244
N8260 G1 X5.072 Y-9.453 Z5.239
N8270 G1 X4.741 Y-9.627 Z5.233
N8280 G1 X4.405 Y-9.789 Z5.228
N8290 G1 X4.063 Y-9.939 Z5.222
N8300 G1 X3.716 Y-10.077 Z5.216
N8310 G1 X3.365 Y-10.203 Z5.211
N8320 G1 X3.009 Y-10.317 Z5.205
N8330 G1 X2.649 Y-10.419 Z5.2
N8340 G1 X2.286 Y-10.508 Z5.194
N8350 G1 X1.92 Y-10.584 Z5.189
N8360 G1 X1.551 Y-10.647 Z5.183
N8370 G1 X1.181 Y-10.698 Z5.178
N8380 G1 X0.808 Y-10.736 Z5.172
N8390 G1 X0.435 Y-10.761 Z5.167
N8400 G1 X0.06 Y-10.772 Z5.161
N8410 G1 X-0.314 Y-10.771 Z5.156
N8420 G1 X-0.689 Y-10.757 Z5.15
N8430 G1 X-1.062 Y-10.73 Z5.145
N8440 G1 X-1.435 Y-10.689 Z5.139
N8450 G1 X-1.807 Y-10.636 Z5.133
N8460 G1 X-2.176 Y-10.57 Z5.128
N8470 G1 X-2.543 Y-10.491 Z5.122
N8480 G1 X-2.907 Y-10.4 Z5.117
N8490 G1 X-3.268 Y-10.295 Z5.111
N8500 G1 X-3.625 Y-10.178 Z5.106
N8510 G1 X-3.977 Y-10.049 Z5.1
N8520 G1 X-4.326 Y-9.908 Z5.095
N8530 G1 X-4.669 Y-9.754 Z5.089
N8540 G1 X-5.007 Y-9.589 Z5.084
N8550 G1 X-5.338 Y-9.412 Z5.078
N8560 G1 X-5.664 Y-9.223 Z5.073
N8570 G1 X-5.983 Y-9.024 Z5.067
N8580 G1 X-6.295 Y-8.813 Z5.062
N8590 G1 X-6.599 Y-8.591 Z5.056
N8600 G1 X-6.896 Y-8.359 Z5.05
N8610 G1 X-7.185 Y-8.117 Z5.045
N8620 G1 X-7.465 Y-7.864 Z5.039
N8630 G1 X-7.736 Y-7.602 Z5.034
N8640 G1 X-7.998 Y-7.331 Z5.028
N8650 G1 X-8.25 Y-7.05 Z5.023
N8660 G1 X-8.493 Y-6.761 Z5.017
N8670 G1 X-8.725 Y-6.464 Z5.012
N8680 G1 X-8.947 Y-6.158 Z5.006
N8690 G1 X-9.159 Y-5.845 Z5.001
N8700 G1 X-9.359 Y-5.525 Z4.995
N8710 G1 X-9.548 Y-5.198 Z4.99
N8720 G1 X-9.726 Y-4.864 Z4.984
N8730 G1 X-9.892 Y-4.525 Z4.979
N8740 G1 X-10.047 Y-4.179 Z4.973
N8750 G1 X-10.189 Y-3.828 Z4.967
N8760 G1 X-10.319 Y-3.473 Z4.962
N8770 G1 X-10.436 Y-3.113 Z4.956
N8780 G1 X-10.541 Y-2.749 Z4.951
N8790 G1 X-10.634 Y-2.382 Z4.945
N8800 G1 X-10.713 Y-2.011 Z4.94
N8810 G1 X-10.78 Y-1.638 Z4.934
N8820 G1 X-10.833 Y-1.263 Z4.929
N8830 G1 X-10.874 Y-0.886 Z4.923
N8840 G1 X-10.901 Y-0.507 Z4.918
N8850 G1 X-10.916 Y-0.128 Z4.912
N8860 G1 X-10.917 Y0.252 Z4.907
N8870 G1 X-10.904 Y0.631 Z4.901
N8880 G1 X-10.879 Y1.01 Z4.896
N8890 G1 X-10.841 Y1.388 Z4.89
N8900 G1 X-10.789 Y1.765 Z4.884
N8910 G1 X-10.724 Y2.139 Z4.879
N8920 G1 X-10.646 Y2.512 Z4.873
N8930 G1 X-10.556 Y2.881 Z4.868
N8940 G1 X-10.452 Y3.247 Z4.862
N8950 G1 X-10.336 Y3.61 Z4.857
N8960 G1 X-10.207 Y3.968 Z4.851
N8970 G1 X-10.066 Y4.322 Z4.846
N8980 G1 X-9.913 Y4.67 Z4.84
N8990 G1 X-9.747 Y5.014 Z4.835
N9000 G1 X-9.57 Y5.351 Z4.829
N9010 G1 X-9.381 Y5.682 Z4.824
N9020 G1 X-9.18 Y6.007 Z4.818
N9030 G1 X-8.968 Y6.324 Z4.813
N9040 G1 X-8.746 Y6.634 Z4.807
N9050 G1 X-8.512 Y6.936 Z4.801
N9060 G1 X-8.268 Y7.23 Z4.796
N9070 G1 X-8.014 Y7.515 Z4.79
N9080 G1 X-7.751 Y7.791 Z4.785
N9090 G1 X-7.477 Y8.058 Z4.779
N9100 G1 X-7.195 Y8.316 Z4.774
N9110 G1 X-6.903 Y8.563 Z4.768
N9120 G1 X-6.603 Y8.801 Z4.763
N9130 G1 X-6.295 Y9.028 Z4.757
N9140 G1 X-5.979 Y9.244 Z4.752
N9150 G1 X-5.656 Y9.449 Z4.746
N9160 G1 X-5.326 Y9.642 Z4.741
N9170 G1 X-4.989 Y9.825 Z4.735
N9180 G1 X-4.645 Y9.995 Z4.729
N9190 G1 X-4.296 Y10.153 Z4.724
N9200 G1 X-3.942 Y10.3 Z4.718
N9210 G1 X-3.583 Y10.433 Z4.713
N9220 G1 X-3.219 Y10.555 Z4.707
N9230 G1 X-2.851 Y10.663 Z4.702
N9240 G1 X-2.479 Y10.759 Z4.696
N9250 G1 X-2.104 Y10.842 Z4.691
N9260 G1 X-1.726 Y10.912 Z4.685
N9270 G1 X-1.346 Y10.968 Z4.68
N9280 G1 X-0.964 Y11.012 Z4.674
N9290 G1 X-0.581 Y11.042 Z4.669
N9300 G1 X-0.197 Y11.058 Z4.663
N9310 G1 X0.187 Y11.062 Z4.658
N9320 G1 X0.572 Y11.052 Z4.652
N9330 G1 X0.956 Y11.028 Z4.646
N9340 G1 X1.339 Y10.992 Z4.641
N9350 G1 X1.721 Y10.942 Z4.635
N9360 G1 X2.101 Y10.878 Z4.63
N9370 G1 X2.479 Y10.802 Z4.624
N9380 G1 X2.854 Y10.712 Z4.619
N9390 G1 X3.225 Y10.609 Z4.613
N9400 G1 X3.593 Y10.494 Z4.608
N9410 G1 X3.957 Y10.366 Z4.602
N9420 G1 X4.316 Y10.225 Z4.597
N9430 G1 X4.67 Y10.072 Z4.591
N9440 G1 X5.019 Y9.906 Z4.586
N9450 G1 X5.362 Y9.728 Z4.58
N9460 G1 X5.698 Y9.539 Z4.575
N9470 G1 X6.028 Y9.338 Z4.569
N9480 G1 X6.351 Y9.125 Z4.563
N9490 G1 X6.666 Y8.901 Z4.558
N9500 G1 X6.974 Y8.667 Z4.552
N9510 G1 X7.273 Y8.421 Z4.547
N9520 G1 X7.564 Y8.166 Z4.541
N9530 G1 X7.845 Y7.9 Z4.536
N9540 G1 X8.117 Y7.625 Z4.53
N9550 G1 X8.38 Y7.34 Z4.525
N9560 G1 X8.632 Y7.046 Z4.519
N9570 G1 X8.875 Y6.744 Z4.514
N9580 G1 X9.106 Y6.433 Z4.508
N9590 G1 X9.327 Y6.114 Z4.503
N9600 G1 X9.537 Y5.788 Z4.497
N9610 G1 X9.735 Y5.455 Z4.492
N9620 G1 X9.922 Y5.114 Z4.486
N9630 G1 X10.096 Y4.768 Z4.48
N9640 G1 X10.259 Y4.415 Z4.475
N9650 G1 X10.409 Y4.057 Z4.469
N9660 G1 X10.547 Y3.694 Z4.464
N9670 G1 X10.672 Y3.326 Z4.458
N9680 G1 X10.784 Y2.954 Z4.453
N9690 G1 X10.884 Y2.578 Z4.447
N9700 G1 X10.97 Y2.198 Z4.442
N9710 G1 X11.043 Y1.816 Z4.436
N9720 G1 X11.102 Y1.432 Z4.431
N9730 G1 X11.149 Y1.045 Z4.425
N9740 G1 X11.181 Y0.657 Z4.42
N9750 G1 X11.201 Y0.268 Z4.414
N9760 G1 X11.206 Y-0.121 Z4.409
N9770 G1 X11.199 Y-0.511 Z4.403
N9780 G1 X11.177 Y-0.9 Z4.397
N9790 G1 X11.142 Y-1.289 Z4.392
N9800 G1 X11.094 Y-1.676 Z4.386
N9810 G1 X11.032 Y-2.061 Z4.381
N9820 G1 X10.957 Y-2.444 Z4.375
N9830 G1 X10.868 Y-2.824 Z4.37
N9840 G1 X10.767 Y-3.201 Z4.364
N9850 G1 X10.652 Y-3.575 Z4.359
N9860 G1 X10.524 Y-3.944 Z4.353
N9870 G1 X10.384 Y-4.309 Z4.348
N9880 G1 X10.231 Y-4.668 Z4.342
N9890 G1 X10.065 Y-5.023 Z4.337
N9900 G1 X9.887 Y-5.371 Z4.331
N9910 G1 X9.697 Y-5.713 Z4.326
N9920 G1 X9.495 Y-6.048 Z4.32
N9930 G1 X9.282 Y-6.377 Z4.314
N9940 G1 X9.057 Y-6.697 Z4.309
N9950 G1 X8.822 Y-7.01 Z4.303
N9960 G1 X8.575 Y-7.315 Z4.298
N9970 G1 X8.318 Y-7.611 Z4.292
N9980 G1 X8.05 Y-7.897 Z4.287
N9990 G1 X7.773 Y-8.175 Z4.281
N10000 G1 X7.487 Y-8.442 Z4.276
N10010 G1 X7.191 Y-8.7 Z4.27
N10020 G1 X6.886 Y-8.947 Z4.265
N10030 G1 X6.572 Y-9.184 Z4.259
N10040 G1 X6.251 Y-9.41 Z4.254
N10050 G1 X5.922 Y-9.624 Z4.248
N10060 G1 X5.585 Y-9.827 Z4.243
N10070 G1 X5.242 Y-10.018 Z4.237
N10080 G1 X4.892 Y-10.197 Z4.231
N10090 G1 X4.535 Y-10.364 Z4.226
N10100 G1 X4.174 Y-10.518 Z4.22
N10110 G1 X3.806 Y-10.66 Z4.215
N10120 G1 X3.435 Y-10.789 Z4.209
N10130 G1 X3.058 Y-10.905 Z4.204
N10140 G1 X2.678 Y-11.007 Z4.198
N10150 G1 X2.294 Y-11.097 Z4.193
N10160 G1 X1.908 Y-11.173 Z4.187
N10170 G1 X1.519 Y-11.236 Z4.182
N10180 G1 X1.127 Y-11.285 Z4.176
N10190 G1 X0.735 Y-11.321 Z4.171
N10200 G1 X0.341 Y-11.343 Z4.165
N10210 G1 X-0.054 Y-11.351 Z4.16
N10220 G1 X-0.448 Y-11.345 Z4.154
N10230 G1 X-0.843 Y-11.326 Z4.148
N10240 G1 X-1.236 Y-11.293 Z4.143
N10250 G1 X-1.629 Y-11.246 Z4.137
N10260 G1 X-2.019 Y-11.186 Z4.132
N10270 G1 X-2.408 Y-11.112 Z4.126
N10280 G1 X-2.793 Y-11.025 Z4.121
N10290 G1 X-3.176 Y-10.924 Z4.115
N10300 G1 X-3.554 Y-10.81 Z4.11
N10310 G1 X-3.929 Y-10.683 Z4.104
N10320 G1 X-4.299 Y-10.543 Z4.099
N10330 G1 X-4.665 Y-10.39 Z4.093
N10340 G1 X-5.024 Y-10.225 Z4.088
N10350 G1 X-5.378 Y-10.047 Z4.082
N10360 G1 X-5.726 Y-9.856 Z4.076
N10370 G1 X-6.067 Y-9.654 Z4.071
N10380 G1 X-6.401 Y-9.44 Z4.065
N10390 G1 X-6.727 Y-9.214 Z4.06
N10400 G1 X-7.045 Y-8.977 Z4.054
N10410 G1 X-7.355 Y-8.729 Z4.049
N10420 G1 X-7.656 Y-8.471 Z4.043
N10430 G1 X-7.948 Y-8.202 Z4.038
N10440 G1 X-8.231 Y-7.923 Z4.032
N10450 G1 X-8.504 Y-7.634 Z4.027
N10460 G1 X-8.766 Y-7.336 Z4.021
N10470 G1 X-9.019 Y-7.029 Z4.016
N10480 G1 X-9.26 Y-6.713 Z4.01
N10490 G1 X-9.49 Y-6.388 Z4.005
N10500 G1 X-9.709 Y-6.056 Z3.999
N10510 G1 X-9.917 Y-5.717 Z3.993
N10520 G1 X-10.112 Y-5.37 Z3.988
N10530 G1 X-10.296 Y-5.017 Z3.982
N10540 G1 X-10.467 Y-4.657 Z3.977
N10550 G1 X-10.626 Y-4.292 Z3.971
N10560 G1 X-10.771 Y-3.921 Z3.966
N10570 G1 X-10.904 Y-3.545 Z3.96
N10580 G1 X-11.024 Y-3.164 Z3.955
N10590 G1 X-11.13 Y-2.78 Z3.949
N10600 G1 X-11.223 Y-2.392 Z3.944
N10610 G1 X-11.303 Y-2.001 Z3.938
N10620 G1 X-11.369 Y-1.607 Z3.933
N10630 G1 X-11.421 Y-1.212 Z3.927
N10640 G1 X-11.459 Y-0.814 Z3.922
N10650 G1 X-11.484 Y-0.415 Z3.916
N10660 G1 X-11.495 Y-0.016 Z3.91
N10670 G1 X-11.491 Y0.384 Z3.905
N10680 G1 X-11.474 Y0.783 Z3.899
N10690 G1 X-11.443 Y1.182 Z3.894
N10700 G1 X-11.398 Y1.58 Z3.888
N10710 G1 X-11.34 Y1.976 Z3.883
N10720 G1 X-11.267 Y2.369 Z3.877
N10730 G1 X-11.181 Y2.76 Z3.872
N10740 G1 X-11.082 Y3.148 Z3.866
N10750 G1 X-10.969 Y3.532 Z3.861
N10760 G1 X-10.842 Y3.913 Z3.855
N10770 G1 X-10.703 Y4.288 Z3.85
N10780 G1 X-10.55 Y4.659 Z3.844
N10790 G1 X-10.384 Y5.025 Z3.839
N10800 G1 X-10.206 Y5.384 Z3.833
N10810 G1 X-10.016 Y5.737 Z3.827
N10820 G1 X-9.813 Y6.084 Z3.822
N10830 G1 X-9.598 Y6.423 Z3.816
N10840 G1 X-9.372 Y6.754 Z3.811
N10850 G1 X-9.134 Y7.078 Z3.805
N10860 G1 X-8.885 Y7.393 Z3.8
N10870 G1 X-8.625 Y7.7 Z3.794
N10880 G1 X-8.354 Y7.997 Z3.789
N10890 G1 X-8.073 Y8.285 Z3.783
N10900 G1 X-7.782 Y8.563 Z3.778
N10910 G1 X-7.482 Y8.831 Z3.772
N10920 G1 X-7.173 Y9.088 Z3.767
N10930 G1 X-6.854 Y9.335 Z3.761
N10940 G1 X-6.527 Y9.57 Z3.756
N10950 G1 X-6.192 Y9.794 Z3.75
N10960 G1 X-5.85 Y10.006 Z3.744
N10970 G1 X-5.5 Y10.206 Z3.739
N10980 G1 X-5.143 Y10.394 Z3.733
N10990 G1 X-4.78 Y10.569 Z3.728
N11000 G1 X-4.411 Y10.732 Z3.722
N11010 G1 X-4.036 Y10.882 Z3.717
N11020 G1 X-3.657 Y11.019 Z3.711
N11030 G1 X-3.272 Y11.142 Z3.706
N11040 G1 X-2.884 Y11.252 Z3.7
N11050 G1 X-2.491 Y11.349 Z3.695
N11060 G1 X-2.096 Y11.432 Z3.689
N11070 G1 X-1.698 Y11.501 Z3.684
N11080 G1 X-1.297 Y11.556 Z3.678
N11090 G1 X-0.895 Y11.598 Z3.673
N11100 G1 X-0.491 Y11.625 Z3.667
N11110 G1 X-0.087 Y11.638 Z3.661
N11120 G1 X0.318 Y11.637 Z3.656
N11130 G1 X0.722 Y11.622 Z3.65
N11140 G1 X1.126 Y11.593 Z3.645
N11150 G1 X1.529 Y11.55 Z3.639
N11160 G1 X1.93 Y11.493 Z3.634
N11170 G1 X2.329 Y11.423 Z3.628
N11180 G1 X2.726 Y11.338 Z3.623
N11190 G1 X3.119 Y11.239 Z3.617
N11200 G1 X3.509 Y11.127 Z3.612
N11210 G1 X3.894 Y11.001 Z3.606
N11220 G1 X4.276 Y10.862 Z3.601
N11230 G1 X4.652 Y10.71 Z3.595
N11240 G1 X5.023 Y10.545 Z3.59
N11250 G1 X5.388 Y10.367 Z3.584
N11260 G1 X5.747 Y10.176 Z3.578
N11270 G1 X6.099 Y9.973 Z3.573
N11280 G1 X6.443 Y9.757 Z3.567
N11290 G1 X6.78 Y9.53 Z3.562
N11300 G1 X7.11 Y9.291 Z3.556
N11310 G1 X7.43 Y9.041 Z3.551
N11320 G1 X7.742 Y8.779 Z3.545
N11330 G1 X8.045 Y8.507 Z3.54
N11340 G1 X8.338 Y8.225 Z3.534
N11350 G1 X8.621 Y7.932 Z3.529
N11360 G1 X8.894 Y7.63 Z3.523
N11370 G1 X9.157 Y7.318 Z3.518
N11380 G1 X9.408 Y6.997 Z3.512
N11390 G1 X9.648 Y6.667 Z3.506
N11400 G1 X9.877 Y6.33 Z3.501
N11410 G1 X10.094 Y5.984 Z3.495
N11420 G1 X10.298 Y5.631 Z3.49
N11430 G1 X10.491 Y5.271 Z3.484
N11440 G1 X10.671 Y4.905 Z3.479
N11450 G1 X10.838 Y4.532 Z3.473
N11460 G1 X10.992 Y4.154 Z3.468
N11470 G1 X11.132 Y3.77 Z3.462
N11480 G1 X11.26 Y3.382 Z3.457
N11490 G1 X11.374 Y2.989 Z3.451
N11500 G1 X11.474 Y2.592 Z3.446
N11510 G1 X11.56 Y2.193 Z3.44
N11520 G1 X11.633 Y1.79 Z3.435
N11530 G1 X11.691 Y1.385 Z3.429
N11540 G1 X11.735 Y0.978 Z3.423
N11550 G1 X11.765 Y0.569 Z3.418
N11560 G1 X11.781 Y0.16 Z3.412
N11570 G1 X11.783 Y-0.25 Z3.407
N11580 G1 X11.77 Y-0.659 Z3.401
N11590 G1 X11.743 Y-1.068 Z3.396
N11600 G1 X11.702 Y-1.476 Z3.39
N11610 G1 X11.647 Y-1.883 Z3.385
N11620 G1 X11.578 Y-2.287 Z3.379
N11630 G1 X11.494 Y-2.689 Z3.374
N11640 G1 X11.397 Y-3.088 Z3.368
N11650 G1 X11.286 Y-3.483 Z3.363
N11660 G1 X11.161 Y-3.874 Z3.357
N11670 G1 X11.022 Y-4.261 Z3.352
N11680 G1 X10.87 Y-4.643 Z3.346
N11690 G1 X10.705 Y-5.019 Z3.34
N11700 G1 X10.527 Y-5.39 Z3.335
N11710 G1 X10.336 Y-5.754 Z3.329
N11720 G1 X10.133 Y-6.112 Z3.324
N11730 G1 X9.917 Y-6.462 Z3.318
N11740 G1 X9.689 Y-6.805 Z3.313
N11750 G1 X9.449 Y-7.139 Z3.307
N11760 G1 X9.198 Y-7.466 Z3.302
N11770 G1 X8.935 Y-7.783 Z3.296
N11780 G1 X8.661 Y-8.091 Z3.291
N11790 G1 X8.377 Y-8.389 Z3.285
N11800 G1 X8.082 Y-8.678 Z3.28
N11810 G1 X7.778 Y-8.956 Z3.274
N11820 G1 X7.464 Y-9.224 Z3.269
N11830 G1 X7.141 Y-9.48 Z3.263
N11840 G1 X6.809 Y-9.725 Z3.257
N11850 G1 X6.468 Y-9.959 Z3.252
N11860 G1 X6.12 Y-10.18 Z3.246
N11870 G1 X5.764 Y-10.39 Z3.241
N11880 G1 X5.4 Y-10.587 Z3.235
N11890 G1 X5.031 Y-10.771 Z3.23
N11900 G1 X4.654 Y-10.942 Z3.224
N11910 G1 X4.272 Y-11.1 Z3.219
N11920 G1 X3.885 Y-11.245 Z3.213
N11930 G1 X3.492 Y-11.376 Z3.208
N11940 G1 X3.096 Y-11.494 Z3.202
N11950 G1 X2.695 Y-11.598 Z3.197
N11960 G1 X2.291 Y-11.688 Z3.191
N11970 G1 X1.884 Y-11.763 Z3.186
N11980 G1 X1.474 Y-11.825 Z3.18
N11990 G1 X1.062 Y-11.872 Z3.174
N12000 G1 X0.649 Y-11.905 Z3.169
N12010 G1 X0.235 Y-11.924 Z3.163
N12020 G1 X-0.18 Y-11.928 Z3.158
N12030 G1 X-0.595 Y-11.918 Z3.152
N12040 G1 X-1.009 Y-11.893 Z3.147
N12050 G1 X-1.422 Y-11.854 Z3.141
N12060 G1 X-1.834 Y-11.8 Z3.136
N12070 G1 X-2.243 Y-11.733 Z3.13
N12080 G1 X-2.651 Y-11.651 Z3.125
N12090 G1 X-3.055 Y-11.555 Z3.119
N12100 G1 X-3.456 Y-11.444 Z3.114
N12110 G1 X-3.852 Y-11.32 Z3.108
N12120 G1 X-4.245 Y-11.183 Z3.103
N12130 G1 X-4.632 Y-11.031 Z3.097
N12140 G1 X-5.014 Y-10.866 Z3.091
N12150 G1 X-5.39 Y-10.688 Z3.086
N12160 G1 X-5.76 Y-10.497 Z3.08
N12170 G1 X-6.123 Y-10.293 Z3.075
N12180 G1 X-6.479 Y-10.077 Z3.069
N12190 G1 X-6.827 Y-9.848 Z3.064
N12200 G1 X-7.168 Y-9.608 Z3.058
N12210 G1 X-7.499 Y-9.355 Z3.053
N12220 G1 X-7.822 Y-9.091 Z3.047
N12230 G1 X-8.135 Y-8.816 Z3.042
N12240 G1 X-8.439 Y-8.53 Z3.036
N12250 G1 X-8.733 Y-8.234 Z3.031
N12260 G1 X-9.016 Y-7.927 Z3.025
N12270 G1 X-9.289 Y-7.611 Z3.02
N12280 G1 X-9.551 Y-7.286 Z3.014
N12290 G1 X-9.801 Y-6.951 Z3.008
N12300 G1 X-10.039 Y-6.608 Z3.003
N12310 G1 X-10.265 Y-6.257 Z2.997
N12320 G1 X-10.48 Y-5.898 Z2.992
N12330 G1 X-10.681 Y-5.531 Z2.986
N12340 G1 X-10.87 Y-5.158 Z2.981
N12350 G1 X-11.045 Y-4.778 Z2.975
N12360 G1 X-11.208 Y-4.392 Z2.97
N12370 G1 X-11.357 Y-4.001 Z2.964
N12380 G1 X-11.492 Y-3.605 Z2.959
N12390 G1 X-11.613 Y-3.204 Z2.953
N12400 G1 X-11.721 Y-2.799 Z2.948
N12410 G1 X-11.814 Y-2.391 Z2.942
N12420 G1 X-11.893 Y-1.979 Z2.936
N12430 G1 X-11.958 Y-1.565 Z2.931
N12440 G1 X-12.009 Y-1.148 Z2.925
N12450 G1 X-12.044 Y-0.73 Z2.92
N12460 G1 X-12.066 Y-0.311 Z2.914
N12470 G1 X-12.072 Y0.108 Z2.909
N12480 G1 X-12.065 Y0.528 Z2.903
N12490 G1 X-12.042 Y0.947 Z2.898
N12500 G1 X-12.005 Y1.366 Z2.892
N12510 G1 X-11.954 Y1.783 Z2.887
N12520 G1 X-11.887 Y2.198 Z2.881
N12530 G1 X-11.807 Y2.61 Z2.876
N12540 G1 X-11.712 Y3.02 Z2.87
N12550 G1 X-11.603 Y3.426 Z2.865
N12560 G1 X-11.48 Y3.829 Z2.859
N12570 G1 X-11.343 Y4.227 Z2.853
N12580 G1 X-11.192 Y4.62 Z2.848
N12590 G1 X-11.028 Y5.007 Z2.842
N12600 G1 X-10.85 Y5.389 Z2.837
N12610 G1 X-10.659 Y5.764 Z2.831
N12620 G1 X-10.455 Y6.133 Z2.826
N12630 G1 X-10.238 Y6.495 Z2.82
N12640 G1 X-10.009 Y6.848 Z2.815
N12650 G1 X-9.767 Y7.194 Z2.809
N12660 G1 X-9.514 Y7.531 Z2.804
N12670 G1 X-9.248 Y7.859 Z2.798
N12680 G1 X-8.972 Y8.178 Z2.793
N12690 G1 X-8.684 Y8.488 Z2.787
N12700 G1 X-8.386 Y8.787 Z2.782
N12710 G1 X-8.078 Y9.075 Z2.776
N12720 G1 X-7.76 Y9.353 Z2.77
N12730 G1 X-7.432 Y9.62 Z2.765
N12740 G1 X-7.095 Y9.875 Z2.759
N12750 G1 X-6.749 Y10.118 Z2.754
N12760 G1 X-6.395 Y10.349 Z2.748
N12770 G1 X-6.033 Y10.568 Z2.743
N12780 G1 X-5.663 Y10.774 Z2.737
N12790 G1 X-5.287 Y10.968 Z2.732
N12800 G1 X-4.903 Y11.148 Z2.726
N12810 G1 X-4.514 Y11.314 Z2.721
N12820 G1 X-4.119 Y11.467 Z2.715
N12830 G1 X-3.719 Y11.607 Z2.71
N12840 G1 X-3.314 Y11.732 Z2.704
N12850 G1 X-2.905 Y11.843 Z2.699
N12860 G1 X-2.492 Y11.94 Z2.693
N12870 G1 X-2.076 Y12.023 Z2.687
N12880 G1 X-1.657 Y12.091 Z2.682
N12890 G1 X-1.236 Y12.144 Z2.676
N12900 G1 X-0.814 Y12.183 Z2.671
N12910 G1 X-0.39 Y12.207 Z2.665
N12920 G1 X0.035 Y12.217 Z2.66
N12930 G1 X0.46 Y12.211 Z2.654
N12940 G1 X0.884 Y12.191 Z2.649
N12950 G1 X1.308 Y12.156 Z2.643
N12960 G1 X1.73 Y12.106 Z2.638
N12970 G1 X2.15 Y12.042 Z2.632
N12980 G1 X2.569 Y11.963 Z2.627
N12990 G1 X2.984 Y11.87 Z2.621
N13000 G1 X3.395 Y11.762 Z2.616
N13010 G1 X3.803 Y11.64 Z2.61
N13020 G1 X4.207 Y11.504 Z2.604
N13030 G1 X4.605 Y11.353 Z2.599
N13040 G1 X4.998 Y11.189 Z2.593
N13050 G1 X5.386 Y11.012 Z2.588
N13060 G1 X5.767 Y10.821 Z2.582
N13070 G1 X6.141 Y10.616 Z2.577
N13080 G1 X6.508 Y10.399 Z2.571
N13090 G1 X6.868 Y10.169 Z2.566
N13100 G1 X7.219 Y9.927 Z2.56
N13110 G1 X7.561 Y9.673 Z2.555
N13120 G1 X7.895 Y9.406 Z2.549
N13130 G1 X8.22 Y9.129 Z2.544
N13140 G1 X8.534 Y8.84 Z2.538
N13150 G1 X8.839 Y8.54 Z2.533
N13160 G1 X9.133 Y8.229 Z2.527
N13170 G1 X9.416 Y7.909 Z2.521
N13180 G1 X9.687 Y7.579 Z2.516
N13190 G1 X9.948 Y7.239 Z2.51
N13200 G1 X10.196 Y6.891 Z2.505
N13210 G1 X10.432 Y6.534 Z2.499
N13220 G1 X10.656 Y6.169 Z2.494
N13230 G1 X10.866 Y5.797 Z2.488
N13240 G1 X11.064 Y5.417 Z2.483
N13250 G1 X11.249 Y5.03 Z2.477
N13260 G1 X11.42 Y4.637 Z2.472
N13270 G1 X11.577 Y4.238 Z2.466
N13280 G1 X11.72 Y3.834 Z2.461
N13290 G1 X11.85 Y3.426 Z2.455
N13300 G1 X11.965 Y3.012 Z2.45
N13310 G1 X12.065 Y2.595 Z2.444
N13320 G1 X12.151 Y2.175 Z2.438
N13330 G1 X12.223 Y1.751 Z2.433
N13340 G1 X12.28 Y1.326 Z2.427
N13350 G1 X12.321 Y0.898 Z2.422
N13360 G1 X12.348 Y0.47 Z2.416
N13370 G1 X12.36 Y0.04 Z2.411
N13380 G1 X12.358 Y-0.39 Z2.405
N13390 G1 X12.34 Y-0.819 Z2.4
N13400 G1 X12.307 Y-1.248 Z2.394
N13410 G1 X12.259 Y-1.676 Z2.389
N13420 G1 X12.197 Y-2.101 Z2.383
N13430 G1 X12.119 Y-2.525 Z2.378
N13440 G1 X12.027 Y-2.945 Z2.372
N13450 G1 X11.921 Y-3.362 Z2.366
N13460 G1 X11.8 Y-3.776 Z2.361
N13470 G1 X11.664 Y-4.185 Z2.355
N13480 G1 X11.515 Y-4.589 Z2.35
N13490 G1 X11.351 Y-4.988 Z2.344
N13500 G1 X11.174 Y-5.381 Z2.339
N13510 G1 X10.983 Y-5.767 Z2.333
N13520 G1 X10.779 Y-6.147 Z2.328
N13530 G1 X10.561 Y-6.52 Z2.322
N13540 G1 X10.331 Y-6.885 Z2.317
N13550 G1 X10.088 Y-7.242 Z2.311
N13560 G1 X9.832 Y-7.59 Z2.306
N13570 G1 X9.565 Y-7.929 Z2.3
N13580 G1 X9.286 Y-8.259 Z2.295
N13590 G1 X8.996 Y-8.579 Z2.289
N13600 G1 X8.694 Y-8.889 Z2.283
N13610 G1 X8.382 Y-9.188 Z2.278
N13620 G1 X8.06 Y-9.477 Z2.272
N13630 G1 X7.727 Y-9.754 Z2.267
N13640 G1 X7.385 Y-10.019 Z2.261
N13650 G1 X7.034 Y-10.272 Z2.256
N13660 G1 X6.675 Y-10.513 Z2.25
N13670 G1 X6.307 Y-10.742 Z2.245
N13680 G1 X5.931 Y-10.957 Z2.239
N13690 G1 X5.548 Y-11.16 Z2.234
N13700 G1 X5.158 Y-11.349 Z2.228
N13710 G1 X4.762 Y-11.524 Z2.223
N13720 G1 X4.359 Y-11.686 Z2.217
N13730 G1 X3.951 Y-11.833 Z2.212
N13740 G1 X3.539 Y-11.966 Z2.206
N13750 G1 X3.121 Y-12.085 Z2.2
N13760 G1 X2.7 Y-12.19 Z2.195
N13770 G1 X2.275 Y-12.279 Z2.189
N13780 G1 X1.847 Y-12.354 Z2.184
N13790 G1 X1.417 Y-12.414 Z2.178
N13800 G1 X0.985 Y-12.459 Z2.173
N13810 G1 X0.551 Y-12.489 Z2.167
N13820 G1 X0.117 Y-12.504 Z2.162
N13830 G1 X-0.318 Y-12.503 Z2.156
N13840 G1 X-0.753 Y-12.488 Z2.151
N13850 G1 X-1.187 Y-12.457 Z2.145
N13860 G1 X-1.619 Y-12.412 Z2.14
N13870 G1 X-2.05 Y-12.351 Z2.134
N13880 G1 X-2.479 Y-12.276 Z2.129
N13890 G1 X-2.905 Y-12.185 Z2.123
N13900 G1 X-3.328 Y-12.08 Z2.117
N13910 G1 X-3.747 Y-11.96 Z2.112
N13920 G1 X-4.161 Y-11.825 Z2.106
N13930 G1 X-4.571 Y-11.677 Z2.101
N13940 G1 X-4.975 Y-11.514 Z2.095
N13950 G1 X-5.374 Y-11.337 Z2.09
N13960 G1 X-5.766 Y-11.146 Z2.084
N13970 G1 X-6.152 Y-10.941 Z2.079
N13980 G1 X-6.53 Y-10.724 Z2.073
N13990 G1 X-6.901 Y-10.493 Z2.068
N14000 G1 X-7.263 Y-10.249 Z2.062
N14010 G1 X-7.617 Y-9.993 Z2.057
N14020 G1 X-7.962 Y-9.725 Z2.051
N14030 G1 X-8.297 Y-9.444 Z2.046
N14040 G1 X-8.623 Y-9.152 Z2.04
N14050 G1 X-8.938 Y-8.849 Z2.034
N14060 G1 X-9.243 Y-8.535 Z2.029
N14070 G1 X-9.536 Y-8.211 Z2.023
N14080 G1 X-9.818 Y-7.877 Z2.018
N14090 G1 X-10.089 Y-7.532 Z2.012
N14100 G1 X-10.347 Y-7.179 Z2.007
N14110 G1 X-10.593 Y-6.817 Z2.001
N14120 G1 X-10.826 Y-6.446 Z1.996
N14130 G1 X-11.047 Y-6.067 Z1.99
N14140 G1 X-11.254 Y-5.681 Z1.985
N14150 G1 X-11.448 Y-5.288 Z1.979
N14160 G1 X-11.627 Y-4.888 Z1.974
N14170 G1 X-11.793 Y-4.482 Z1.968
N14180 G1 X-11.945 Y-4.07 Z1.963
N14190 G1 X-12.082 Y-3.653 Z1.957
N14200 G1 X-12.205 Y-3.232 Z1.951
N14210 G1 X-12.313 Y-2.806 Z1.946
N14220 G1 X-12.406 Y-2.377 Z1.94
N14230 G1 X-12.485 Y-1.945 Z1.935
N14240 G1 X-12.548 Y-1.51 Z1.929
N14250 G1 X-12.596 Y-1.073 Z1.924
N14260 G1 X-12.629 Y-0.635 Z1.918
N14270 G1 X-12.647 Y-0.195 Z1.913
N14280 G1 X-12.649 Y0.244 Z1.907
N14290 G1 X-12.636 Y0.684 Z1.902
N14300 G1 X-12.608 Y1.123 Z1.896
N14310 G1 X-12.564 Y1.561 Z1.891
N14320 G1 X-12.505 Y1.998 Z1.885
N14330 G1 X-12.432 Y2.432 Z1.88
N14340 G1 X-12.343 Y2.863 Z1.874
N14350 G1 X-12.239 Y3.291 Z1.868
N14360 G1 X-12.12 Y3.716 Z1.863
N14370 G1 X-11.987 Y4.136 Z1.857
N14380 G1 X-11.838 Y4.551 Z1.852
N14390 G1 X-11.676 Y4.961 Z1.846
N14400 G1 X-11.499 Y5.366 Z1.841
N14410 G1 X-11.309 Y5.763 Z1.835
N14420 G1 X-11.104 Y6.155 Z1.83
N14430 G1 X-10.886 Y6.539 Z1.824
N14440 G1 X-10.655 Y6.915 Z1.819
N14450 G1 X-10.411 Y7.283 Z1.813
N14460 G1 X-10.154 Y7.642 Z1.808
N14470 G1 X-9.885 Y7.993 Z1.802
N14480 G1 X-9.603 Y8.334 Z1.797
N14490 G1 X-9.31 Y8.665 Z1.791
N14500 G1 X-9.006 Y8.985 Z1.785
N14510 G1 X-8.69 Y9.295 Z1.78
N14520 G1 X-8.364 Y9.594 Z1.774
N14530 G1 X-8.027 Y9.882 Z1.769
N14540 G1 X-7.681 Y10.157 Z1.763
N14550 G1 X-7.325 Y10.421 Z1.758
N14560 G1 X-6.96 Y10.672 Z1.752
N14570 G1 X-6.586 Y10.91 Z1.747
N14580 G1 X-6.205 Y11.135 Z1.741
N14590 G1 X-5.815 Y11.347 Z1.736
N14600 G1 X-5.419 Y11.545 Z1.73
N14610 G1 X-5.015 Y11.729 Z1.725
N14620 G1 X-4.606 Y11.9 Z1.719
N14630 G1 X-4.19 Y12.056 Z1.713
N14640 G1 X-3.769 Y12.197 Z1.708
N14650 G1 X-3.344 Y12.324 Z1.702
N14660 G1 X-2.914 Y12.436 Z1.697
N14670 G1 X-2.481 Y12.533 Z1.691
N14680 G1 X-2.044 Y12.614 Z1.686
N14690 G1 X-1.605 Y12.681 Z1.68
N14700 G1 X-1.163 Y12.732 Z1.675
N14710 G1 X-0.72 Y12.768 Z1.669
N14720 G1 X-0.276 Y12.789 Z1.664
N14730 G1 X0.169 Y12.794 Z1.658
N14740 G1 X0.614 Y12.783 Z1.653
N14750 G1 X1.058 Y12.758 Z1.647
N14760 G1 X1.501 Y12.716 Z1.642
N14770 G1 X1.943 Y12.66 Z1.636
N14780 G1 X2.382 Y12.588 Z1.63
N14790 G1 X2.819 Y12.5 Z1.625
N14800 G1 X3.253 Y12.398 Z1.619
N14810 G1 X3.683 Y12.28 Z1.614
N14820 G1 X4.109 Y12.148 Z1.608
N14830 G1 X4.53 Y12.001 Z1.603
N14840 G1 X4.945 Y11.839 Z1.597
N14850 G1 X5.355 Y11.663 Z1.592
N14860 G1 X5.759 Y11.472 Z1.586
N14870 G1 X6.156 Y11.268 Z1.581
N14880 G1 X6.545 Y11.05 Z1.575
N14890 G1 X6.927 Y10.818 Z1.57
N14900 G1 X7.301 Y10.574 Z1.564
N14910 G1 X7.666 Y10.316 Z1.559
N14920 G1 X8.022 Y10.046 Z1.553
N14930 G1 X8.368 Y9.763 Z1.547
N14940 G1 X8.705 Y9.469 Z1.542
N14950 G1 X9.031 Y9.163 Z1.536
N14960 G1 X9.347 Y8.845 Z1.531
N14970 G1 X9.651 Y8.517 Z1.525
N14980 G1 X9.943 Y8.179 Z1.52
N14990 G1 X10.224 Y7.83 Z1.514
N15000 G1 X10.493 Y7.472 Z1.509
N15010 G1 X10.749 Y7.104 Z1.503
N15020 G1 X10.992 Y6.728 Z1.498
N15030 G1 X11.222 Y6.343 Z1.492
N15040 G1 X11.439 Y5.951 Z1.487
N15050 G1 X11.642 Y5.551 Z1.481
N15060 G1 X11.83 Y5.144 Z1.476
N15070 G1 X12.005 Y4.731 Z1.47
N15080 G1 X12.165 Y4.312 Z1.464
N15090 G1 X12.311 Y3.887 Z1.459
N15100 G1 X12.442 Y3.458 Z1.453
N15110 G1 X12.558 Y3.024 Z1.448
N15120 G1 X12.658 Y2.586 Z1.442
N15130 G1 X12.744 Y2.145 Z1.437
N15140 G1 X12.814 Y1.701 Z1.431
N15150 G1 X12.868 Y1.255 Z1.426
N15160 G1 X12.907 Y0.807 Z1.42
N15170 G1 X12.931 Y0.358 Z1.415
N15180 G1 X12.938 Y-0.092 Z1.409
N15190 G1 X12.931 Y-0.542 Z1.404
N15200 G1 X12.907 Y-0.991 Z1.398
N15210 G1 X12.868 Y-1.44 Z1.393
N15220 G1 X12.813 Y-1.887 Z1.387
N15230 G1 X12.743 Y-2.331 Z1.381
N15240 G1 X12.658 Y-2.774 Z1.376
N15250 G1 X12.557 Y-3.213 Z1.37
N15260 G1 X12.44 Y-3.648 Z1.365
N15270 G1 X12.309 Y-4.08 Z1.359
N15280 G1 X12.163 Y-4.506 Z1.354
N15290 G1 X12.002 Y-4.927 Z1.348
N15300 G1 X11.826 Y-5.343 Z1.343
N15310 G1 X11.636 Y-5.752 Z1.337
N15320 G1 X11.432 Y-6.155 Z1.332
N15330 G1 X11.214 Y-6.55 Z1.326
N15340 G1 X10.982 Y-6.938 Z1.321
N15350 G1 X10.737 Y-7.317 Z1.315
N15360 G1 X10.479 Y-7.688 Z1.31
N15370 G1 X10.207 Y-8.05 Z1.304
N15380 G1 X9.924 Y-8.402 Z1.298
N15390 G1 X9.628 Y-8.744 Z1.293
N15400 G1 X9.321 Y-9.075 Z1.287
N15410 G1 X9.002 Y-9.396 Z1.282
N15420 G1 X8.672 Y-9.706 Z1.276
N15430 G1 X8.331 Y-10.004 Z1.271
N15440 G1 X7.98 Y-10.29 Z1.265
N15450 G1 X7.62 Y-10.564 Z1.26
N15460 G1 X7.25 Y-10.825 Z1.254
N15470 G1 X6.871 Y-11.073 Z1.249
N15480 G1 X6.483 Y-11.308 Z1.243
N15490 G1 X6.088 Y-11.529 Z1.238
N15500 G1 X5.684 Y-11.737 Z1.232
N15510 G1 X5.274 Y-11.93 Z1.227
N15520 G1 X4.858 Y-12.109 Z1.221
N15530 G1 X4.435 Y-12.274 Z1.215
N15540 G1 X4.006 Y-12.424 Z1.21
N15550 G1 X3.573 Y-12.559 Z1.204
N15560 G1 X3.135 Y-12.678 Z1.199
N15570 G1 X2.693 Y-12.783 Z1.193
N15580 G1 X2.247 Y-12.872 Z1.188
N15590 G1 X1.799 Y-12.945 Z1.182
N15600 G1 X1.348 Y-13.003 Z1.177
N15610 G1 X0.896 Y-13.045 Z1.171
N15620 G1 X0.442 Y-13.072 Z1.166
N15630 G1 X-0.013 Y-13.083 Z1.16
N15640 G1 X-0.468 Y-13.077 Z1.155
N15650 G1 X-0.922 Y-13.056 Z1.149
N15660 G1 X-1.376 Y-13.02 Z1.143
N15670 G1 X-1.828 Y-12.967 Z1.138
N15680 G1 X-2.279 Y-12.899 Z1.132
N15690 G1 X-2.726 Y-12.815 Z1.127
N15700 G1 X-3.171 Y-12.716 Z1.121
N15710 G1 X-3.612 Y-12.601 Z1.116
N15720 G1 X-4.049 Y-12.471 Z1.11
N15730 G1 X-4.481 Y-12.325 Z1.105
N15740 G1 X-4.908 Y-12.165 Z1.099
N15750 G1 X-5.329 Y-11.99 Z1.094
N15760 G1 X-5.744 Y-11.8 Z1.088
N15770 G1 X-6.152 Y-11.596 Z1.083
N15780 G1 X-6.553 Y-11.378 Z1.077
N15790 G1 X-6.947 Y-11.146 Z1.072
N15800 G1 X-7.332 Y-10.901 Z1.066
N15810 G1 X-7.708 Y-10.642 Z1.06
N15820 G1 X-8.075 Y-10.37 Z1.055
N15830 G1 X-8.433 Y-10.085 Z1.049
N15840 G1 X-8.781 Y-9.788 Z1.044
N15850 G1 X-9.118 Y-9.48 Z1.038
N15860 G1 X-9.444 Y-9.159 Z1.033
N15870 G1 X-9.759 Y-8.827 Z1.027
N15880 G1 X-10.063 Y-8.485 Z1.022
N15890 G1 X-10.354 Y-8.132 Z1.016
N15900 G1 X-10.633 Y-7.769 Z1.011
N15910 G1 X-10.899 Y-7.396 Z1.005
N15920 G1 X-11.153 Y-7.015 Z1.
N15930 G1 X-11.393 Y-6.624 Z0.994
N15940 G1 X-11.619 Y-6.226 Z0.989
N15950 G1 X-11.831 Y-5.82 Z0.983
N15960 G1 X-12.029 Y-5.406 Z0.977
N15970 G1 X-12.213 Y-4.986 Z0.972
N15980 G1 X-12.382 Y-4.559 Z0.966
N15990 G1 X-12.536 Y-4.127 Z0.961
N16000 G1 X-12.675 Y-3.69 Z0.955
N16010 G1 X-12.798 Y-3.248 Z0.95
N16020 G1 X-12.907 Y-2.801 Z0.944
N16030 G1 X-12.999 Y-2.352 Z0.939
N16040 G1 X-13.076 Y-1.899 Z0.933
N16050 G1 X-13.138 Y-1.443 Z0.928
N16060 G1 X-13.183 Y-0.986 Z0.922
N16070 G1 X-13.213 Y-0.527 Z0.917
N16080 G1 X-13.226 Y-0.068 Z0.911
N16090 G1 X-13.224 Y0.392 Z0.906
N16100 G1 X-13.205 Y0.852 Z0.9
N16110 G2 X13.205 Y-0.852 R13.233
N16120 G2 X-13.205 Y0.852 R13.233
N16130 G3 X-13.798 Y1.527 R0.635
N16140 G1 X-14.115 Y1.547
N16150 G1 X-14.214 Y1.553 Z0.908
N16160 G1 X-14.311 Y1.56 Z0.931
N16170 G1 X-14.403 Y1.566 Z0.969
N16180 G1 X-14.487 Y1.571 Z1.021
N16190 G1 X-14.563 Y1.576 Z1.086
N16200 G1 X-14.628 Y1.58 Z1.162
N16210 G1 X-14.68 Y1.583 Z1.247
N16220 G1 X-14.718 Y1.586 Z1.339
N16230 G1 X-14.741 Y1.587 Z1.436
N16240 G1 X-14.749 Y1.588 Z1.535
N16250 G0 Z11.66
N16270 G28 G91 Z0.
N16280 G90

(BALL SOCKET)
N16290 M1
N16300 M998
N16310 T1 G43 H1 M6
N16320 S1000 M3
N16330 G0 X0. Y0.
N16340 M8
N16350 G0 Z24.83
N16370 G0 Z14.83
N16380 G98 G81 X0. Y0. Z6.66 R11.66 F1000.
N16390 G80
N16400 G0 Z24.83

N16420 M9
N16430 G28 G91 Z0.
N16440 G28 X0. Y0.
N16450 M30
